!!!!SEGMENT: pl-sa--154-a-iv-4--003_anonim--missa-patrem.krn
!!!cenid: 17xx:1522
!!!COM: Anonim
!!!COM-rismID: pe30004985
!!!CDT:
!!!CNT:
!!!OPR: Missa
!!!OTL: Patrem
!!!OMV: 003
!!!PDT: 1767
!!!AGN: Sacred; Mass
!!!SMS-siglum: PL-SA
!!!SMS-shelfmark: 154/A IV 4
!!!SMS-shelfwork: 001-003 M
!!!SMS-variant:
!!!SMS-altvar:
!!!NIFC-rismSourceID: 1001035514
!!!NIFC-islandoraID:
!!!URL-pdf-islandora:
!!!URL-scan: https://bc.bdsandomierz.pl/dlibra/publication/1540/edition/1508/content @EN{Scan in the Sandomierz Diocese Digital Library} @PL{Skany w portalu Cyfrowa Biblioteka Diecezjalna w Sandomierzu}
!!!ONB-nifc: UWAGA: części Mszy: 1. Kyrie, 2. Gloria, 3. Patrem, 4. Sanctus, 5. Agnus. Uwaga: część Sanctus zawiera Benedictus
!!!AIN: 1 bass 2 clrno 1 organ 1 soprn 2 violn
!!!key: G
**kern	**fba	**kern	**dynam	**kern	**dynam	**kern	**text	**kern	**text	**kern	**kern
*part7	*	*part6	*part6	*part5	*part5	*part4	*part4	*part3	*part3	*part2	*part1
*group4	*	*group3	*	*group3	*	*group2	*group2	*group2	*group2	*group1	*group1
*staff7	*	*staff6	*	*staff5	*	*staff4	*staff4	*staff3	*staff3	*staff2	*staff1
*I"Organo.	*	*I"Violino 2do.	*	*I"Violino Primo	*	*I"Baſso	*	*I"Canto.	*	*I"Clarino 2do Ex	*I"Clarino 1·mo ex
*I'org	*	*I'vl 2	*	*I'vl 1	*	*I'B	*	*I'S	*	*I'clno 2	*I'clno 1
*Iorgan	*	*Ivioln	*	*Ivioln	*	*Ibass	*	*Isoprn	*	*Iclrno	*Iclrno
*ICklav	*	*ICstr	*	*ICstr	*	*ICvox	*	*ICvox	*	*ICbras	*ICbras
*clefF4	*	*clefG2	*	*clefG2	*	*clefF4	*	*clefC2	*	*clefG2	*clefG2
*	*	*	*	*	*	*	*	*	*	*ITrd-1c-2	*ITrd-1c-2
*	*	*	*	*	*	*	*	*kcancel	*	*kcancel	*
*k[f#]	*	*k[f#]	*	*k[f#]	*	*k[f#]	*	*k[f#]	*	*k[f#c#]	*k[f#c#]
*G:	*	*G:	*	*G:	*	*G:	*	*G:	*	*G:	*G:
*M2/2	*	*M2/2	*	*M2/2	*	*M2/2	*	*M2/2	*	*M2/2	*M2/2
*met(c|)	*	*met(c|)	*	*met(c|)	*	*met(c|)	*	*met(c|)	*	*met(c|)	*met(c|)
=1	=1	=1	=1	=1	=1	=1	=1	=1	=1	=1	=1
!	!	!	!	!	!	!	!	!LO:CL:ed	!	!	!
*	*	*	*	*	*	*	*	*clefC1	*	*	*
*2\right	*	*2\right	*	*2\right	*	*2\right	*	*2\right	*	*2\right	*2\right
!!LO:TX:t=P:problem:wszystkie custos użyte jako łamanie pięciolinii
!!LO:TX:t=P:problem:odwrócone metrum
!	!	!LO:TX:t=P:znaki:problem= jeszcze f#	!	!LO:TX:t=P:znaki:problem= jeszcze f#	!	!LO:TX:a:B:t=Allabre	!	!	!	!LO:TX:a:B:t=Allabreve	!LO:TX:a:B:t=Allabreve
2G\	.	2b\	.	2gg\	.	2G\	PA-	2gg\	PA-	2dd\	2gg\
2A\	.	2cc\	.	2ff#\	.	4A\	-trem	4ff#\	-trem	2dd\	2ff#\
.	.	.	.	.	.	4A\	O-	4ff#\	o-	.	.
=2	=2	=2	=2	=2	=2	=2	=2	=2	=2	=2	=2
4B\	.	4dd\	.	4gg\	.	4B\	-mni-	4gg\	-mni-	2dd\	2gg\
4G\	.	4b\	.	4dd\	.	4G\	-po-	4dd\	-po-	.	.
2c\	.	4g/	.	2ee\	.	2c\	-ten-	2ee\	-ten-	2r	2r
.	.	4gg\	.	.	.	.	.	.	.	.	.
=3	=3	=3	=3	=3	=3	=3	=3	=3	=3	=3	=3
4B\	.	4gg\	.	4dd\	.	4B\	-te(m)	4dd\	-tem	4r	4r
4B\	.	4gg\	.	4ddd\	.	4B\	Fac-	4dd\	fac-	4dd\	4gg\
4A\	.	4cc\	.	4ff#\	.	4A\	-to-	4dd\	-to-	4dd\	4ff#\
4G\	.	4b\	.	4gg\	.	4G\	-rem	8cc\L	-rem	4dd\	4gg\
.	.	.	.	.	.	.	.	8b\J	cae-	.	.
=4	=4	=4	=4	=4	=4	=4	=4	=4	=4	=4	=4
.	.	.	.	.	.	.	.	16qqa/LL	.	.	.
.	.	.	.	.	.	.	.	16qqb/JJ	.	.	.
!	!	!	!	!	!	!	!	!	!	!LO:SIC:v:s=4cc\	!
4F#\	.	4a/	.	4ccc\	.	4F#\	Cae-	4cc\	-li	4dd\	4aa\
8G\L	.	8dd\L	.	8bb\L	.	8G\	-li	8b\	et	2ee\	8bb\L
8E\J	.	8ee\J	.	8gg\J	.	8E\	et	8g\	ter-	.	8gg\J
4C/	.	2ff#t\	.	2aa\	.	4C/	ter-	2a\	-rae	.	2aa\
4D/	.	.	.	.	.	4D/	.	.	.	4ff#\	.
=5	=5	=5	=5	=5	=5	=5	=5	=5	=5	=5	=5
!	!	!	!	!LO:SIC:v:s=4gg\	!	!	!	!	!	!	!
4GG/	.	4gg\	.	4gg#X\	.	4GG/	-re	4g/	vi-	4gg\	4gg\
4G\	.	4dd\	.	4bb\	.	8G\	vi-	8dd\	-ſi-	4gg\	4bb\
.	.	.	.	.	.	8G\	-ſi-	8dd\	-bi-	.	.
!	!	!	!	!	!	!	!	!LO:TX:t=P:problem=4dd poprawione na 8dd	!	!	!
4F#\	.	4dd\	.	4aa\	.	4F#\	-bi-	4dd\	.	4ff#\	4aa\
4F#\	.	4a/	.	4dd\	.	8F#\	-li-	8dd\	-li-	4ff#\	4aa\
.	.	.	.	.	.	8F#\	-um	8dd\	-um	.	.
=6	=6	=6	=6	=6	=6	=6	=6	=6	=6	=6	=6
!	!	!	!	!LO:SIC:v:s=4cc#\	!	!	!	!	!	!	!
4E\	.	4g/	.	4cc\	.	4E\	om-	4cc#X\	om-	2ee\	2gg\
4E\	x 6\	4g/	.	4a\	.	8E\	-ni-	8cc#\	-ni-	.	.
.	.	.	.	.	.	8E\	-u(m)	8cc#\	-um	.	.
!	!	!	!	!	!	!	!	!LO:TX:t=P:problem=4dd poprawione na 8dd	!	!	!
!	!	!	!	!	!	!	!	!LO:SIC:v:s=4dd\	!	!	!
4F#\	.	4f#/	.	4dd\	.	4F#\	et	4cc#\	.	2dd\	2ff#\
!	!	!LO:TX:t=P:problem=4e poprawione na 4f#	!	!	!	!	!	!	!	!	!
!	!	!LO:TX:b:t=f	!	!	!	!	!	!	!	!	!
4D\	.	4f#/	.	4dd\	.	4D\	in-	8dd\	et	.	.
.	.	.	.	.	.	.	.	8dd\	in-	.	.
!	!	!	!	!	!	!	!	!LO:LB:g=original	!	!	!
=7	=7	=7	=7	=7	=7	=7	=7	=7	=7	=7	=7
4G\	.	4e/	.	8bb\L	.	4G\	-vi-	4dd\	-vi-	2dd\	2dd\
.	.	.	.	8aa\	.	.	.	.	.	.	.
4G\	.	4b\	.	8gg\	.	4G\	-ſi-	4dd\	-ſi-	.	.
.	.	.	.	8ff#\J	.	.	.	.	.	.	.
4G#X\	.	4b\	.	8ee\L	.	4.G#X\	-bi-	4.dd\	-bi-	4r	4r
.	.	.	.	8dd\	.	.	.	.	.	.	.
4G#\	.	4e/	.	8cc#Xi\	.	.	.	.	.	4ee\	4ee\
.	.	.	.	8b\J	.	8G#\	-li-	8dd\	-li-	.	.
!	!	!	!	!	!	!LO:LB:g=original	!	!	!	!	!
=8	=8	=8	=8	=8	=8	=8	=8	=8	=8	=8	=8
2A\	x #	4e/	.	8cc#X\L	.	2A\	-um	2cc#X\	-um	2ee\	2ee\
.	.	.	.	8a\	.	.	.	.	.	.	.
.	.	4e/	.	8cc#\	.	.	.	.	.	.	.
.	.	.	.	8ee\J	.	.	.	.	.	.	.
4A\	.	4e/	.	4aa\	.	4A\	et	4cc#\	et	2r	2r
4A\	.	4e/	.	4aa\	.	4A\	in	4cc#\	in	.	.
=9	=9	=9	=9	=9	=9	=9	=9	=9	=9	=9	=9
4B\	.	4f#/	.	4dd\	.	4B\	U-	4dd\	u-	1r	1r
4B\	.	4f#/	.	8ee\L	.	4B\	-nu(m)	(8ee\L	-num	.	.
.	.	.	.	8ff#\J	.	.	.	8ff#\J)	.	.	.
4G\	.	4b/	.	4ee\	.	4G\	Do-	4ee\	Do-	.	.
4G\	.	4b/	.	8ff#\L	.	8G\	-mi-	8ff#\	-mi-	.	.
.	.	.	.	8gg\J	.	8G\	-nu(m)	8gg\	-nu(m)	.	.
=10	=10	=10	=10	=10	=10	=10	=10	=10	=10	=10	=10
4A\	.	4e/	.	2cc#X\	.	4A\	Je-	4cc#X\	Je-	2a/	2ee\
4A\	.	4e/	.	.	.	4A\	-ſu(m)	4cc#\	-ſu(m)	.	.
4F#\	.	4a/	.	2dd\	.	4F#\	Chris-	4dd\	Chris-	4r	4r
4F#\	.	4a/	.	.	.	4F#\	-tu(m)	4dd\	-tu(m)	4dd\	4ff#\
!	!	!	!	!LO:LB:g=original	!	!	!	!	!	!	!
=11	=11	=11	=11	=11	=11	=11	=11	=11	=11	=11	=11
4G\	.	4dd\	.	4bb\	.	4G\	Fi-	4b\	Fi-	4dd\	4dd\
4A\	.	4g/	.	4cc#X\	.	8A\	-li-	8cc#X\	-li-	4ee\	4ee\
.	.	.	.	.	.	8A\	-u(m)	8cc#\	-u(m)	.	.
4B\	.	4f#/	.	[2dd\	.	4B\	De-	4dd\	De-	4ff#\	2ff#\
4F#\	.	4a/	.	.	.	4F#\	-i	4dd\	-i	4dd\	.
=12	=12	=12	=12	=12	=12	=12	=12	=12	=12	=12	=12
4G\	.	4b\	.	8dd\L]	.	4G\	U-	4dd\	U-	4dd\	4ff#\
.	.	.	.	8gg\	.	.	.	.	.	.	.
4E\	.	4b\	.	8ff#\	.	4E\	-ni-	4b\	-ni-	4a/	4gg\
.	.	.	.	8ee\J	.	.	.	.	.	.	.
4A\	.	2cc#X\	.	2ee\	.	4.A\	-ge-	4.cc#X\	-ge-	2a/	2ee\
4AA/	.	.	.	.	.	.	.	.	.	.	.
.	.	.	.	.	.	8A\	-ni-	8cc#\	-ni-	.	.
!LO:LB:g=original	!	!LO:PB:g=original	!	!	!	!	!	!	!	!	!
=13	=13	=13	=13	=13	=13	=13	=13	=13	=13	=13	=13
4D\	.	4dd\	.	4dd\	.	4D/	-tu(m)	4dd\	-tu(m)	2f#/	2dd\
!	!	!	!	!	!	!LO:TX:a:i:t=ſolo	!	!	!	!	!
4r	.	4r	.	4r	.	8D\	et	4r	.	.	.
.	.	.	.	.	.	8E\	ex	.	.	.	.
!LO:TX:a:i:t=ſolo	!	!	!	!	!	!	!	!	!	!	!
4D\	.	2r	.	2r	.	4F#\	Pa-	2r	.	2r	2r
4E\	.	.	.	.	.	4G\	-tre	.	.	.	.
=14	=14	=14	=14	=14	=14	=14	=14	=14	=14	=14	=14
!	!	!LO:TX:a:t=2	!	!LO:TX:a:t=2	!	!	!	!	!	!	!
2F#\	.	0r	.	0r	.	4A\	na-	00r	.	00r	00r
.	.	.	.	.	.	4d\	-tu(m)	.	.	.	.
4G\	.	.	.	.	.	4B\	an-	.	.	.	.
4C#X/	.	.	.	.	.	8A\L	-te	.	.	.	.
.	.	.	.	.	.	8G\J	.	.	.	.	.
=15	=15	=15	=15	=15	=15	=15	=15	=15	=15	=15	=15
4D\	.	.	.	.	.	4F#\	om-	.	.	.	.
4G\	.	.	.	.	.	8G\	-ni-	.	.	.	.
.	.	.	.	.	.	8A\	-a	.	.	.	.
4A\	x #	.	.	.	.	4.E\	ſae-	.	.	.	.
4AA/	.	.	.	.	.	.	.	.	.	.	.
.	.	.	.	.	.	8D\	-cu-	.	.	.	.
!	!	!	!	!	!	!LO:LB:g=original	!	!	!	!	!
=16	=16	=16	=16	=16	=16	=16	=16	=16	=16	=16	=16
2D/	.	4r	.	4r	.	4D\	-la	.	.	.	.
.	.	8d/L	.	8ff#\L	.	4r	.	.	.	.	.
.	.	8e/J	.	8gg\J	.	.	.	.	.	.	.
2r	.	4f#/	.	4aa\	.	2r	.	.	.	.	.
.	.	4g/	.	4bb\	.	.	.	.	.	.	.
=17	=17	=17	=17	=17	=17	=17	=17	=17	=17	=17	=17
!	!	!	!	!	!	!LO:TX:a:t=3	!	!	!	!	!
0r	.	4a/	.	4cc\	.	0r	.	.	.	.	.
.	.	4f#/	.	4aa\	.	.	.	.	.	.	.
.	.	4g/	.	4b\	.	.	.	.	.	.	.
.	.	4e/	.	4gg\	.	.	.	.	.	.	.
=18	=18	=18	=18	=18	=18	=18	=18	=18	=18	=18	=18
.	.	4f#/	.	4a\	.	.	.	00r	.	00r	00r
.	.	4d/	.	4ff#\	.	.	.	.	.	.	.
.	.	4e/	.	4g/	.	.	.	.	.	.	.
.	.	4c#X/	.	4ee\	.	.	.	.	.	.	.
=19	=19	=19	=19	=19	=19	=19	=19	=19	=19	=19	=19
1r	.	4d/	.	4f#/	.	1r	.	.	.	.	.
.	.	4B/	.	4dd\	.	.	.	.	.	.	.
.	.	4G/	.	4e/	.	.	.	.	.	.	.
.	.	4A/	.	4cc#X\	.	.	.	.	.	.	.
=20	=20	=20	=20	=20	=20	=20	=20	=20	=20	=20	=20
2D\	.	2d/	.	2dd\	.	4r	.	.	.	.	.
.	.	.	.	.	.	8D\	Et	.	.	.	.
.	.	.	.	.	.	8E\	ex	.	.	.	.
4D\	.	2r	.	2r	.	4F#\	Pa-	.	.	.	.
4E\	.	.	.	.	.	4G\	-tre	.	.	.	.
=21	=21	=21	=21	=21	=21	=21	=21	=21	=21	=21	=21
2F#\	.	2r	.	2r	.	4A\	na-	.	.	.	.
.	.	.	.	.	.	4d\	-tu(m)	.	.	.	.
4G\	.	4r	.	4r	.	4B\	an-	.	.	.	.
!	!	!	!LO:DY:a:t=pia	!	!	!	!	!	!	!	!
4C#X/	.	4e/	p	4a/	.	8A\L	-te	.	.	.	.
.	.	.	.	.	.	8G\J	.	.	.	.	.
=22	=22	=22	=22	=22	=22	=22	=22	=22	=22	=22	=22
4D\	.	4a/	.	4dd\	.	4F#\	om-	00r	.	00r	00r
4G\	.	4b/	.	4ee\	.	8G\	-ni-	.	.	.	.
.	.	.	.	.	.	8A\	-a	.	.	.	.
4A\	.	4c#X/	.	4a\	.	4.E\	ſae-	.	.	.	.
4AA/	.	4e/	.	4cc#X\	.	.	.	.	.	.	.
.	.	.	.	.	.	8D\	-cu-	.	.	.	.
=23	=23	=23	=23	=23	=23	=23	=23	=23	=23	=23	=23
4D\	.	2A/	.	8dd/L	.	4D\	-la	.	.	.	.
.	.	.	.	8a/	.	.	.	.	.	.	.
4D\	.	.	.	8f#/	.	4d\	De-	.	.	.	.
.	.	.	.	8d/J	.	.	.	.	.	.	.
4E\	x 2	4r	.	4g/	.	4d\	-u(m)	.	.	.	.
!LO:TX:t=P:problem=kasownik przed 4E	!	!LO:SIC:v:s=4c/	!	!	!	!	!	!	!	!	!
4Fn\	x 5	4d/	.	4a/	.	4cn\	de	.	.	.	.
=24	=24	=24	=24	=24	=24	=24	=24	=24	=24	=24	=24
2G\	.	2d/	.	2d/	.	4B\	De-	.	.	.	.
.	.	.	.	.	.	8A\L	-o	.	.	.	.
.	.	.	.	.	.	8B\J	.	.	.	.	.
4r	.	2r	.	2r	.	4G\	lu-	.	.	.	.
4E\	.	.	.	.	.	4B\	-men	.	.	.	.
=25	=25	=25	=25	=25	=25	=25	=25	=25	=25	=25	=25
4AA/	.	4r	.	4r	.	4c\	de	.	.	.	.
4AA/	.	4f#/	.	4ccn\	.	4A\	lu-	.	.	.	.
4AA/	.	4f#/	.	4cc\	.	4F#\	-mi-	.	.	.	.
4AA/	.	4f#/	.	4cc\	.	4E\	-ne	.	.	.	.
!	!	!	!	!LO:LB:g=original	!	!	!	!	!	!	!
=26	=26	=26	=26	=26	=26	=26	=26	=26	=26	=26	=26
4BB/	.	2f#/	.	2f#/	.	2D#X/	De-	0r	.	00r	00r
4BB/	.	.	.	.	.	.	.	.	.	.	.
4D#X/	.	2r	.	2r	.	4B\	-um	.	.	.	.
4D#/	.	.	.	.	.	4B\	.	.	.	.	.
!	!	!	!	!	!	!LO:LB:g=original	!	!	!	!	!
=27	=27	=27	=27	=27	=27	=27	=27	=27	=27	=27	=27
!	!	!	!	!LO:TX:a:t=2	!	!	!	!	!	!	!
2E\	.	0r	.	0r	.	4B\	ve-	.	.	.	.
.	.	.	.	.	.	4e\	-rum	.	.	.	.
4A\	.	.	.	.	.	4cn\	de	.	.	.	.
4D#X\	.	.	.	.	.	4A\	De-	.	.	.	.
=28	=28	=28	=28	=28	=28	=28	=28	=28	=28	=28	=28
4E\	.	.	.	.	.	4G\	-o	1r	.	.	.
4A\	.	.	.	.	.	8F#\L	ve-	.	.	.	.
.	.	.	.	.	.	8E\J	.	.	.	.	.
!	!	!	!	!	!	!LO:TX:a:t=x	!	!	!	!	!
4B\	.	.	.	.	.	2F#\	-ro	.	.	.	.
4BB/	.	.	.	.	.	.	.	.	.	.	.
!	!	!	!	!	!	!	!	!LO:LB:g=original	!	!	!
=29	=29	=29	=29	=29	=29	=29	=29	=29	=29	=29	=29
4E\	.	4r	.	4r	.	4E\	ge-	4r	.	.	.
!LO:TX:t=tut	!	!	!	!	!	!	!	!	!	!	!
8E\L	.	8gg\L	.	8bb\L	.	8E\	-ni-	8b\	ge-	.	.
8F#\J	.	8ff#\J	.	8aa\J	.	8F#\	-tum	8b\	-ni-	.	.
!LO:LB:g=original	!	!	!	!	!	!	!	!	!	!	!
4G\	.	4ee\	.	4gg\	.	4G\	non	4b\	-tu(m)	.	.
4A\	.	4cc\	.	8ff#\L	.	4A\	fac-	4ee\	non	.	.
.	.	.	.	8ee\J	.	.	.	.	.	.	.
!	!	!LO:LB:g=original	!	!	!	!	!	!	!	!	!
=30	=30	=30	=30	=30	=30	=30	=30	=30	=30	=30	=30
4B\	.	4f#/	.	4dd#X\	.	4B\	-tu(m)	4dd#X\	fac-	00r	00r
4e\	.	4g/	.	4b\	.	4e\	con-	4b\	-tu(m)	.	.
4c\	.	4g/	.	4ee\	.	4c\	-ſub-	4ee\	con-	.	.
8B\L	.	4g/	.	4ee\	.	8B\L	-ſtan-	4ee\	-ſub-	.	.
8A\J	.	.	.	.	.	8A\J	.	.	.	.	.
=31	=31	=31	=31	=31	=31	=31	=31	=31	=31	=31	=31
8G\L	x 6	8b\L	.	8ee\L	.	8G\	-ti-	8ee\	-ſtan-	.	.
8F#\	x 6	8a\	.	8dd#X\	.	8F#\	-a-	8dd#X\	-ti-	.	.
8G\	x 6	8b\	.	8ee\	.	8G\	-lem	8ee\	-a-	.	.
8A\J	.	8cc\J	.	8ff#\J	.	8A\	Pa-	8ff#\	-lem	.	.
.	.	.	.	.	.	.	.	8qqee/	.	.	.
4B\	.	2f#t/	.	4b\	.	2B\	-tri	2dd#X\	Pa-	.	.
4BB/	.	.	.	4dd#X\	.	.	.	.	.	.	.
=32	=32	=32	=32	=32	=32	=32	=32	=32	=32	=32	=32
4E\	.	4g/	.	4ee\	.	4E\	per	4ee\	-tri	.	.
4e\	.	4b/	.	4gg\	.	8e\	quem	8gg\	per	.	.
.	.	.	.	.	.	8e\	.	8gg\	que(m)	.	.
4d\	.	4b/	.	4ff#\	.	4d\	om-	4ff#\	om-	.	.
4c\	.	4g/	.	4ee\	.	8c\	-ni-	8ee\	-ni-	.	.
.	.	.	.	.	.	8c\	-a	8ee\	-a	.	.
=33	=33	=33	=33	=33	=33	=33	=33	=33	=33	=33	=33
4.B\	.	4g/	.	4ddn\	.	4.B\	fa-	4.ddn\	fac-	.	.
.	.	4cc/	.	4ee\	.	.	.	.	.	.	.
8A\	.	.	.	.	.	8A\	-cta	8cc\	-ta	.	.
4G\	.	4b/	.	8ff#\L	.	4G\	ſunt	4b\	ſu(n)t	.	.
.	.	.	.	8gg\J	.	.	.	.	.	.	.
4B\	.	4g/	.	4dd\	.	4B\	qui	4dd\	qui	.	.
=34	=34	=34	=34	=34	=34	=34	=34	=34	=34	=34	=34
4c\	.	4g/	.	8ee\L	.	(4c\	prop-	(4ee\	prop-	1r	1r
.	.	.	.	8ff#\J	.	.	.	.	.	.	.
4B\	.	4dd\	.	4gg\	.	4B\)	.	4gg\)	.	.	.
!	!	!	!	!	!	!LO:LB:g=original	!	!	!	!	!
4A\	.	4ff#\	.	4ccc\	.	4A\	-ter	4cc\	-ter	.	.
4G\	.	4gg\	.	4bb\	.	4G\	nos	4b\	nos	.	.
!	!	!	!	!	!	!	!	!	!	!LO:PB:g=original	!LO:PB:g=original
=35	=35	=35	=35	=35	=35	=35	=35	=35	=35	=35	=35
4F#\	.	4dd\	.	4aa\	.	4F#\	ho-	4a\	ho-	2r	2r
4E\	.	4cc#X\	.	4gg\	.	4E\	-mi-	8b\L	-mi-	.	.
.	.	.	.	.	.	.	.	8cc#X\J	.	.	.
4D\	.	4a\	.	8ff#\L	.	4D\	-nes	4dd\	-nes	4r	4r
.	.	.	.	8ee\J	.	.	.	.	.	.	.
4d\	.	4a\	.	4dd\	.	4d\	et	4dd\	et	4dd\	4dd\
!	!	!	!	!	!	!	!	!LO:LB:g=original	!	!	!
=36	=36	=36	=36	=36	=36	=36	=36	=36	=36	=36	=36
4c\	.	4a\	.	4ff#\	.	4c\	prop-	4dd\	prop-	4dd\	4dd\
4B\	.	4dd\	.	4gg\	.	4B\	-ter	4dd\	-ter	8dd\L	8dd\L
.	.	.	.	.	.	.	.	.	.	8dd\J	8dd\J
4A\	x 6	4ff#\	.	4ccc\	.	4A\	nos-	4dd\	nos-	4dd\	4dd\
4G\	.	4gg\	.	4bb\	.	8G\	-tra(m)	8dd\	-tra(m)	4dd\	4dd\
.	.	.	.	.	.	8G\	ſa-	8dd\	ſa-	.	.
=37	=37	=37	=37	=37	=37	=37	=37	=37	=37	=37	=37
4F#\	.	2dd\	.	4aa\	.	(4F#\	-lu-	2dd\	-lu-	2dd\	2dd\
4E\	.	.	.	4gg\	.	4E\)	.	.	.	.	.
4D\	.	4a/	.	4ff#\	.	4D\	-te(m)	4dd\	-tem	4r	4r
4G\	.	8dd\L	.	4dd\	.	4G\	de-	4dd\	de-	4dd\	4dd\
.	.	8ddd\J	.	.	.	.	.	.	.	.	.
=38	=38	=38	=38	=38	=38	=38	=38	=38	=38	=38	=38
4A\	6 4	8dd\L	.	4cc\	.	(4A\	-sce(n)-	4ccn\	-ſcen-	2dd\	2dd\
.	.	8ddd\	.	.	.	.	.	.	.	.	.
.	.	.	.	8qqcc/	.	.	.	8qqb/	.	.	.
4F#\	.	8dd\	.	4a\	.	4F#\)	.	4a\	.	.	.
.	.	8ddd\J	.	.	.	.	.	.	.	.	.
4G\	.	8dd\L	.	4b\	.	4G\	-dit	4b\	-dit	4r	4r
.	.	8ddd\	.	.	.	.	.	.	.	.	.
*	*	*	*	*	*	*	*	*	*ij	*	*
4B\	.	8dd\	.	4dd\	.	4B\	de-	4gg\	de-	4dd\	4gg\
.	.	8ddd\J	.	.	.	.	.	.	.	.	.
=39	=39	=39	=39	=39	=39	=39	=39	=39	=39	=39	=39
4c\	.	8dd\L	.	2ff#\	.	4c\	-ſcen-	2ff#\	-ſcen-	2ee\	2ff#\
.	.	8ddd\	.	.	.	.	.	.	.	.	.
4A\	.	8dd\	.	.	.	4A\	-dit	.	.	.	.
.	.	8ddd\J	.	.	.	.	.	.	.	.	.
4B\	.	8dd\L	.	4gg\	.	4B\	.	4gg\	-dit	2dd\	4gg\
*	*	*	*	*	*	*	*	*	*Xij	*	*
.	.	8ddd\	.	.	.	.	.	.	.	.	.
4F#\	.	8dd\	.	4dd\	.	4F#\	.	4dd\	De	.	4aa\
.	.	8ddd\J	.	.	.	.	.	.	.	.	.
=40	=40	=40	=40	=40	=40	=40	=40	=40	=40	=40	=40
4G\	.	4dd\	.	2b/	.	4G\	.	(2b\	Cae-	4dd\	4bb\
4E\	.	4g/	.	.	.	8E\	.	.	.	2ee\	2gg\
.	.	.	.	.	.	8E\	de	.	.	.	.
4C/	.	4e/	.	2a/	.	4C/	cae-	2a\)	.	.	.
4D/	.	4f#/	.	.	.	4D/	.	.	.	4dd\	4ff#\
!	!	!	!	!LO:LB:g=original	!	!	!	!	!	!	!
=41	=41	=41	=41	=41	=41	=41	=41	=41	=41	=41	=41
4GG|/	.	4g/	.	4g/	.	4GG/	-lis	2g/	-lis	4dd\	4gg\
!	!	!	!	!	!	!	!	!	!	!	!LO:TX:t=P:problem=2b poprawione na 2cc
4E|\	.	4e/	.	4e/	.	4r	.	.	.	4r	2gg\
!	!	!	!	!	!	!	!	!LO:N:vis=4	!	!	!
4C/	.	4c/	.	4c/	.	2r	.	2r	.	4r	.
4D/	.	4d/	.	4d/	.	.	.	.	.	4dd\	4ff#\
!LO:LB:g=orignal	!	!LO:LB:g=original	!	!	!	!	!	!	!	!	!
=42	=42	=42	=42	=42	=42	=42	=42	=42	=42	=42	=42
2GG/	.	2G/	.	2G/	.	1r	.	1r	.	2dd\	2gg\
2r	.	2r;	.	2r	.	.	.	.	.	2r	2r
!	!	!	!	!	!	!LO:LB:g=original	!	!LO:LB:g=original	!	!	!
=43||	=43||	=43||	=43||	=43||	=43||	=43||	=43||	=43||	=43||	=43||	=43||
*k[e-b-]	*	*k[e-b-]	*	*k[e-b-]	*	*k[e-b-]	*	*k[e-b-]	*	*k[f#c#]	*k[f#c#]
*M4/4	*	*M4/4	*	*M4/4	*	*M4/4	*	*M4/4	*	*M4/4	*M4/4
*met(c)	*	*met(c)	*	*met(c)	*	*met(c)	*	*met(c)	*	*met(c)	*met(c)
!!LO:TX:t=P:problem:oznaczenie metryczne C z kropką
!	!	!	!	!LO:TX:t=P:znaki:problem= pod ee- dodany e-	!	!	!	!	!	!	!
!LO:TX:t=P:znaki:problem= nad BB- dodany B-	!	!LO:TX:a:t=tarde	!	!LO:TX:a:t=Tarde	!	!	!	!LO:TX:t=P:znaki:problem= ee- zamiast e-	!	!	!
!LO:TX:a:t=Tarde	!	!LO:TX:b:t=Et In Carnat(us)	!	!LO:TX:b:t=Et in Carnatus	!	!LO:TX:a:B:t=Andante	!	!LO:TX:a:B:t=Adagio	!	!LO:TX:a:t=Et Incarnat(us) Crucifix(us) tacet	!LO:TX:a:t=Et Incarnat(us) tacet. Crucifix(us) tacet
8D\L	x #	8f#X/L	.	8a/L	.	8r	.	8r	.	1ryy	1ryy
8D\	.	8f#/	.	8a/	.	8D\	Et	8a\	Et	.	.
8D\	.	8f#/	.	8a/	.	8D\	in-	8a\	In-	.	.
8D\J	.	8f#/J	.	8a/J	.	8D\	-car-	8a\	-car-	.	.
!	!	!	!	!LO:SIC:v:s=8b-/L	!	!	!	!	!	!	!
8GG/L	.	8d/L	.	8a/L	.	4.G\	-na-	4.b-\	-na-	.	.
!	!	!	!	!LO:SIC:v:s=8b-/	!	!	!	!	!	!	!
8GG/	.	8d/	.	8a/	.	.	.	.	.	.	.
!	!	!	!	!LO:SIC:v:s=8b-/	!	!	!	!	!	!	!
8GG/	.	8d/	.	8a/	.	.	.	.	.	.	.
!	!	!	!	!LO:SIC:v:s=8b-/J	!	!	!	!	!	!	!
8GG/J	.	8d/J	.	8a/J	.	8G\	-tus	8b-\	-tus	.	.
=44	=44	=44	=44	=44	=44	=44	=44	=44	=44	=44	=44
8D/L	.	8f#X/L	.	8a/L	.	4D/	eſt	4a\	est	1ryy	1ryy
8D/	.	8f#/	.	8a/	.	.	.	.	.	.	.
8BB-/	.	8fn/	.	8a/	.	4BB-/	de	4dd\	de	.	.
8BB-/J	.	8f/J	.	8a/J	.	.	.	.	.	.	.
8E-X\L	.	8b-/L	.	8b-/L	.	4E-\	ſpi-	4gg\	ſpi-	.	.
8E-\	x 6	8b-/	.	8b-/	.	.	.	.	.	.	.
8D\	x 6	8b-/	.	8b-/	.	8D\	-ri-	8ff\	-ri-	.	.
8G\J	x 6	8f/J	.	8b-/J	.	8G\	-tu	8b-\	-tu	.	.
=45	=45	=45	=45	=45	=45	=45	=45	=45	=45	=45	=45
!LO:TX:t=P:problem=mixed beam	!	!	!	!	!	!	!	!	!	!	!
8F\L	x 4	8b-/L	.	8cc\L	.	2F\	ſan-	(4b-\	ſan-	1ryy	1ryy
8F\	.	8b-/	.	8cc\	.	.	.	.	.	.	.
8FF/	x 3	8a/	.	8cc\	.	.	.	4cc\)	.	.	.
8FF/J	.	8a/J	.	8cc\J	.	.	.	.	.	.	.
!	!	!LO:TX:t=P:problem=mixed beam	!LO:DY:a:t=pia	!LO:TX:t=P:problem=mixed beam	!	!	!	!	!	!	!
4BB-/	.	8b-\L	p	8dd\L	.	4BB-/	-cto	4b-\	-cto	.	.
.	.	8B-/	.	8f/	.	.	.	.	.	.	.
4r	.	8B-/	.	8f/	.	8d\	ex	8ff\	ex	.	.
.	.	8B-/J	.	8f/J	.	8d\	Ma-	8ff\	Ma-	.	.
=46	=46	=46	=46	=46	=46	=46	=46	=46	=46	=46	=46
1r	.	8B-/L	.	8f/	.	8d\	-ri-	8ff\	-ri-	1ryy	1ryy
.	.	8B-/	.	4g/	.	16c\	-a	16ee-\	-a	.	.
.	.	.	.	.	.	16B-\	Ma-	16dd\	Ma-	.	.
.	.	8B-/	.	.	.	8d\	-ri-	8ff\	-ri-	.	.
.	.	8B-/J	.	8f/	.	8B-\	-a	8dd\	-a	.	.
.	.	.	.	.	.	8qB-/	.	8qdd/	.	.	.
.	.	8f/L	.	8e-X/L	.	8.A\	Vir-	8.cc\	Vir-	.	.
.	.	8f/	.	(8e-/	.	.	.	.	.	.	.
.	.	.	.	.	.	16A\	-gi-	16cc\	-gi-	.	.
.	.	8f/	.	8d/	.	8A\	-ne	8cc\	-ne	.	.
.	.	8f/J	.	8e-/J)	.	8A\	et	8cc\	et	.	.
=47	=47	=47	=47	=47	=47	=47	=47	=47	=47	=47	=47
!	!	!	!	!LO:SIC:v:s=8en/	!	!	!	!	!	!	!
2r	.	8en/L	.	8e-/	.	4B-\	ho-	4dd-X\	ho-	1ryy	1ryy
!	!	!LO:SIC:v:s=8f/	!	!	!	!	!	!	!	!	!
.	.	8e/	.	4f/	.	.	.	.	.	.	.
.	.	8f/	.	.	.	4A\	-mo	4cc\	-mo	.	.
!	!	!LO:SIC:v:s=8e/J	!	!	!	!	!	!	!	!	!
.	.	8f/J	.	8e-/	.	.	.	.	.	.	.
!LO:N:vis=4	!	!LO:SIC:v:s=8d/L	!	!LO:TX:t=P:problem=mixed beam	!	!LO:N:vis=4.	!	!	!	!	!
8r	.	8e/L	.	8d/L	.	8.G\	fac-	8.b-\	fac-	.	.
!	!	!LO:SIC:v:s=8d/	!	!	!	!	!	!	!	!	!
8r	.	8e/	.	8d/	.	.	.	.	.	.	.
.	.	.	.	.	.	16F\	-tus	16a\	-tus	.	.
!	!	!	!	!	!	!	!	!LO:PB:g=original	!	!	!
4A\	6 65	8f/	.	8d/	.	8F\	est	8a\	est	.	.
.	.	8f/J	.	8dd\J	.	8A\	et	8cc\	et	.	.
!	!	!	!	!	!	!LO:LB:g=original	!	!	!	!	!
=48	=48	=48	=48	=48	=48	=48	=48	=48	=48	=48	=48
!	!	!	!LO:DY:b:t=for	!	!	!	!	!	!	!	!
8A\L	.	8cc\L	f	8cc\L	.	4A\	ho-	4ee-\	ho-	1ryy	1ryy
8A\	.	8cc\	.	8cc\	.	.	.	.	.	.	.
8A\	.	8cc\	.	8cc\	.	4A\	-mo	4ee-\	-mo	.	.
8A\J	.	8cc\J	.	8cc\J	.	.	.	.	.	.	.
8B-\L	.	8f/L	.	8b-\L	.	8.B-\	fa-	8.ee-\	fa-	.	.
8B-\	x 4	8f/	.	8b-\	.	.	.	.	.	.	.
.	.	.	.	.	.	16B-\	-ctus	16ddn\	-ctus	.	.
8B-\	5 3	8f/	.	8b-\	.	8B-\	eſt	8dd\	eſt	.	.
8B-\J	.	8f/J	.	8b-\J	.	8B-\	et	8dd\	et	.	.
=49	=49	=49	=49	=49	=49	=49	=49	=49	=49	=49	=49
8F#X\L	.	8a/L	.	8a/L	.	4F#X\	ho-	4cc\	ho-	1ryy	1ryy
8F#\	.	8a/	.	8a/	.	.	.	.	.	.	.
8F#\	x 6	8d/	.	8b-/	.	4G\	-mo	4b-\	-mo	.	.
8F#\J	.	8d/J	.	8b-/J	.	.	.	.	.	.	.
*	*	*custos:a	*	*custos:b	*	*	*ij	*	*ij	*	*
!	!	!LO:LB:g=original	!	!LO:LB:g=original	!	!	!	!	!	!	!
8D\L	x #_	8f#X/L	.	8a/L	.	4D\	ho-	(8a\L	ho-	.	.
8D\	.	8d/	.	8a/	.	.	.	8f#X\J)	.	.	.
!	!	!LO:TX:t=P:problem=8f poprawione an 8e	!	!	!	!	!	!	!	!	!
!	!	!LO:TX:b:t=e	!	!	!	!	!	!	!	!	!
8D\	.	8en/	.	8a/	.	8En\L	-mo	(8g\L	-mo	.	.
*	*	*	*	*	*	*	*Xij	*	*Xij	*	*
8D\J	.	8f#X/J	.	8a/J	.	8F#X\J	.	8a\J)	.	.	.
=50	=50	=50	=50	=50	=50	=50	=50	=50	=50	=50	=50
!LO:TX:t=P:problem=mixed beam	!	!	!	!	!	!	!	!	!	!	!
8G\L	x x	8d/L	.	8g/L	.	4.G\	fac-	4.b-\	fac-	1ryy	1ryy
8GG/	.	8d/	.	8g/	.	.	.	.	.	.	.
8GG/	.	8d/	.	8g/	.	.	.	.	.	.	.
8GG/J	.	8d/J	.	8g/J	.	8G\	-tus	8b-\	-tus	.	.
!	!	!	!	!LO:SIC:v:s=2a;</	!	!	!	!	!	!	!
2D/	.	2f#X;</	.	2g;</	.	2D;;/	est	2a;\	est	.	.
=51||	=51||	=51||	=51||	=51||	=51||	=51||	=51||	=51||	=51||	=51||	=51||
!LO:TX:a:t=ſolo	!	!	!	!	!	!	!	!LO:TX:b:t=Crucifix(us)	!	!	!
8D\L	.	8f#X/L	.	1ryy	.	4.d\	Cru-	00r	.	1ryy	1ryy
!	!	!	!LO:DY:a:t=pia	!	!	!	!	!	!	!	!
8D\	.	8f#/	p	.	.	.	.	.	.	.	.
8D\	.	8f#/	.	.	.	.	.	.	.	.	.
8D\J	.	8f#/J	.	.	.	8A\	-ci-	.	.	.	.
8D\L	.	8f#/L	.	.	.	4F#X\	-fi-	.	.	.	.
8D\	.	8f#/	.	.	.	.	.	.	.	.	.
8D\	.	8f#/	.	.	.	4D\	-xus	.	.	.	.
8D\J	.	8f#/J	.	.	.	.	.	.	.	.	.
=52	=52	=52	=52	=52	=52	=52	=52	=52	=52	=52	=52
!	!	!LO:SIC:v:s=8f#/L	!	!	!	!	!	!	!	!	!
8D\L	x #	8f/L	.	1ryy	.	8.c\	E-	.	.	1ryy	1ryy
!	!	!LO:SIC:v:s=8f#/	!	!	!	!	!	!	!	!	!
8D\	.	8f/	.	.	.	.	.	.	.	.	.
.	.	.	.	.	.	16c\	-ti-	.	.	.	.
!	!	!LO:SIC:v:s=8f#/	!	!	!	!	!	!	!	!	!
8D\	x 2	8f/	.	.	.	8c\	-am	.	.	.	.
!	!	!LO:SIC:v:s=8f#/J	!	!	!	!	!	!	!	!	!
8D\J	.	8f/J	.	.	.	(16d\LL	pro	.	.	.	.
.	.	.	.	.	.	16B-\JJ)	.	.	.	.	.
8GG/L	x -	8d/L	.	.	.	4B-\	no-	.	.	.	.
8GG/	.	8d/	.	.	.	.	.	.	.	.	.
8GG/	.	8d/	.	.	.	8G\	-bis	.	.	.	.
8GG/J	.	8d/J	.	.	.	8d\	ſub	.	.	.	.
*	*	*	*	*	*	*custos:C	*	*	*	*	*
!	!	!	!	!	!	!LO:PB:g=original	!	!	!	!	!
=53	=53	=53	=53	=53	=53	=53	=53	=53	=53	=53	=53
8AA/L	.	8fn/L	.	1ryy	.	8.e-\	Pon-	.	.	1ryy	1ryy
8AA/	x 6	8f/	.	.	.	.	.	.	.	.	.
.	.	.	.	.	.	16Fn\	-ti-	.	.	.	.
8AA/	x 6	8f/	.	.	.	8F\	-o	.	.	.	.
8AA/J	.	8f/J	.	.	.	8e-\	Pi-	.	.	.	.
*custos:C	*	*	*	*	*	*	*	*	*	*	*
!LO:LB:g=original	!	!	!	!	!	!	!	!	!	!	!
8BB-/L	.	8b-/L	.	.	.	4d\	-la-	.	.	.	.
8FF/	.	8b-/	.	.	.	.	.	.	.	.	.
8FF/	.	8a/	.	.	.	4c\	-to	.	.	.	.
8FF/J	.	8a/J	.	.	.	.	.	.	.	.	.
=54	=54	=54	=54	=54	=54	=54	=54	=54	=54	=54	=54
4BB-/	.	4B-/	.	1ryy	.	8d\	Pas-	.	.	1ryy	1ryy
.	.	.	.	.	.	4e-\	.	.	.	.	.
4r	.	4r	.	.	.	.	.	.	.	.	.
.	.	.	.	.	.	8d\	.	.	.	.	.
4FF/	.	8r	.	.	.	16c\LL	-ſus	.	.	.	.
.	.	.	.	.	.	16B-\JJ	.	.	.	.	.
.	.	8c/L	.	.	.	8c\	.	.	.	.	.
4r	.	8B-/	.	.	.	4r	.	.	.	.	.
.	.	8c/J	.	.	.	.	.	.	.	.	.
=55	=55	=55	=55	=55	=55	=55	=55	=55	=55	=55	=55
*	*	*	*	*	*	*	*ij	*	*	*	*
4FF/	.	4A/	.	1ryy	.	8c\	Pas-	00r	.	1ryy	1ryy
.	.	.	.	.	.	4d\	.	.	.	.	.
4r	.	4r	.	.	.	.	.	.	.	.	.
.	.	.	.	.	.	8c\	.	.	.	.	.
8r	.	8r	.	.	.	16B-\LL	-ſus	.	.	.	.
*	*	*	*	*	*	*	*Xij	*	*	*	*
.	.	.	.	.	.	16A\JJ	.	.	.	.	.
8BB-/L	.	8f/L	.	.	.	8B-\	.	.	.	.	.
8BB-/	.	8f/	.	.	.	8B-\	paſ-	.	.	.	.
8BB-/J	.	8f/J	.	.	.	8B-\	-sus	.	.	.	.
=56	=56	=56	=56	=56	=56	=56	=56	=56	=56	=56	=56
8F\L	.	8a/L	.	1ryy	.	4A\	et	.	.	1ryy	1ryy
8F\	.	8a/	.	.	.	.	.	.	.	.	.
8F#X\	.	8d/	.	.	.	4F#X\	ſe-	.	.	.	.
8F#\J	.	8d/J	.	.	.	.	.	.	.	.	.
8G\L	.	8d/L	.	.	.	4.G\	pul-	.	.	.	.
8G\	.	8d/	.	.	.	.	.	.	.	.	.
8C#X\	x 2-	8en/	.	.	.	.	.	.	.	.	.
8C#\J	.	8e/J	.	.	.	8G\	-tus	.	.	.	.
=57	=57	=57	=57	=57	=57	=57	=57	=57	=57	=57	=57
8D\L	x #	8f#X/L	.	1ryy	.	4D/	eſt	.	.	1ryy	1ryy
8D\	.	8f#/	.	.	.	.	.	.	.	.	.
8D\	6 4	8d/	.	.	.	4G\	ſe-	.	.	.	.
8D\J	.	8d/J	.	.	.	.	.	.	.	.	.
*	*	*custos:a	*	*	*	*	*	*	*	*	*
!	!	!LO:LB:g=original	!	!	!	!	!	!	!	!	!
8D\L	.	8f#X/L	.	.	.	4.D/	-pul-	.	.	.	.
8D\	.	8f#/	.	.	.	.	.	.	.	.	.
8D\	.	8f#/	.	.	.	.	.	.	.	.	.
8D\J	.	8f#/J	.	.	.	8D/	-t(us)	.	.	.	.
=58	=58	=58	=58	=58	=58	=58	=58	=58	=58	=58	=58
!	!	!	!	!	!	!LO:TX:t=P:problem=mixed beam	!	!	!	!	!
8GG/L	x n	8d/L	.	1ryy	.	8G\L	eſt	.	.	1ryy	1ryy
8GG/	.	8d/	.	.	.	8GG/J	.	.	.	.	.
8GG/	.	8d/	.	.	.	4r	.	.	.	.	.
8GG/J	.	8d/J	.	.	.	.	.	.	.	.	.
2GG;;/	.	2d;/	.	.	.	2r	.	.	.	.	.
!	!	!	!	!	!	!LO:LB:g=original	!	!	!	!LO:LB:g=original	!LO:LB:g=original
=59||	=59||	=59||	=59||	=59||	=59||	=59||	=59||	=59||	=59||	=59||	=59||
*k[f#]	*	*k[f#]	*	*k[f#]	*	*k[f#]	*	*k[f#]	*	*k[f#c#]	*k[f#c#]
*M4/4	*	*M4/4	*	*M4/4	*	*M4/4	*	*M4/4	*	*M4/4	*M4/4
*met(c)	*	*met(c)	*	*met(c)	*	*met(c)	*	*met(c)	*	*met(c)	*met(c)
!!LO:TX:t=P:problem:oznaczenie metryczne C z kropką
!	!	!	!	!LO:TX:t=P:znaki:problem= jeszcze f#	!	!	!	!	!	!	!
!!LO:TX:t=P:problem:znaki: jeszcze FF#	!	!	!	!LO:TX:b:t=Et Reſurrexit	!	!	!	!LO:TX:t=P:problem:kasowniki: een bn	!	!	!
!LO:TX:b:t=Et Reſurrexit.	!	!LO:TX:a:B:t=Vivace	!	!LO:TX:a:B:t=allo	!	!	!	!	!	!	!
!LO:TX:a:rj:B:t=allo	!	!LO:TX:t=P:problem=mixed beam	!	!LO:TX:t=P:problem=mixed beam	!	!	!	!	!	!LO:TX:a:t=Et Reſurrexit	!LO:TX:a:t=Et Reſurrexit
8r	.	8g/L	.	8g/L	.	0r	.	0r	.	0r	0r
!LO:TX:a:i:t=ſolo	!	!	!	!	!	!	!	!	!	!	!
8G\L	.	8gg\	.	8gg\	.	.	.	.	.	.	.
8B\	.	8gg\	.	8gg\	.	.	.	.	.	.	.
8G\J	.	8gg\J	.	8gg\J	.	.	.	.	.	.	.
4d\	.	16ff#\LL	.	8ff#\L	.	.	.	.	.	.	.
.	.	16ee\J	.	.	.	.	.	.	.	.	.
.	.	8dd\J	.	16ee\L	.	.	.	.	.	.	.
.	.	.	.	16dd\JJ	.	.	.	.	.	.	.
4B\	.	(16gg\LL	.	(16gg\LL	.	.	.	.	.	.	.
.	.	16ff#\	.	16ff#\	.	.	.	.	.	.	.
.	.	16ee\	.	16ee\	.	.	.	.	.	.	.
.	.	16dd\JJ)	.	16dd\JJ)	.	.	.	.	.	.	.
=60	=60	=60	=60	=60	=60	=60	=60	=60	=60	=60	=60
4c\	.	(16ee\LL	.	16ee\LL	.	.	.	.	.	.	.
.	.	16dd\	.	16dd\	.	.	.	.	.	.	.
.	.	16cc\	.	16cc\	.	.	.	.	.	.	.
.	.	16b\JJ)	.	16b\JJ	.	.	.	.	.	.	.
4A\	.	(16cc\LL	.	16cc\LL	.	.	.	.	.	.	.
.	.	16b\	.	16b\	.	.	.	.	.	.	.
.	.	16a\	.	16a\	.	.	.	.	.	.	.
.	.	16g\JJ)	.	16g\JJ	.	.	.	.	.	.	.
4d\	.	16f#/LL	.	16f#/LL	.	.	.	.	.	.	.
.	.	16e/J	.	16e/J	.	.	.	.	.	.	.
!	!	!	!	!LO:TX:t=P:problem=belka szesnastkowa poprawiona na ósemkową	!	!	!	!	!	!	!
.	.	8d/J	.	8d/J	.	.	.	.	.	.	.
8B\L	.	8g/L	.	8g/L	.	.	.	.	.	.	.
8B\J	.	8g/J	.	8g/J	.	.	.	.	.	.	.
=61	=61	=61	=61	=61	=61	=61	=61	=61	=61	=61	=61
8c\L	.	16a/LL	.	(16a/LL	.	1r	.	1r	.	1r	1r
.	.	16f#/J	.	16f#/J)	.	.	.	.	.	.	.
8B\	.	8g/J	.	8g/J	.	.	.	.	.	.	.
8A\	.	(16cc\LL	.	(16cc\LL	.	.	.	.	.	.	.
.	.	16a\J)	.	16a\J)	.	.	.	.	.	.	.
8G\J	.	8b\J	.	8b\J	.	.	.	.	.	.	.
8c\L	.	(16ee\LL	.	(16ee\LL	.	.	.	.	.	.	.
.	.	16cc\J)	.	16cc\J)	.	.	.	.	.	.	.
8B\J	.	8dd\J	.	8dd\J	.	.	.	.	.	.	.
*	*	*Xtuplet	*	*Xtuplet	*	*	*	*	*	*	*
!	!	!	!	!LO:TUP:a:problem=klamra łukowa	!	!	!	!	!	!	!
8r	.	24gg|\LL	.	24gg\LL	.	.	.	.	.	.	.
.	.	24ff#|\	.	24ff#\	.	.	.	.	.	.	.
.	.	24ee|\JJ	.	24ee\JJ	.	.	.	.	.	.	.
8G\	.	24dd|\LL	.	24dd|\LL	.	.	.	.	.	.	.
.	.	24cc|\	.	24cc|\	.	.	.	.	.	.	.
.	.	24b|\JJ	.	24b|\JJ	.	.	.	.	.	.	.
=62	=62	=62	=62	=62	=62	=62	=62	=62	=62	=62	=62
!LO:TX:t=P:problem=mixed beam	!	!	!	!	!	!	!	!	!	!	!
8c\L	.	24ee|\LL	.	24ee|\LL	.	2r	.	2r	.	2r	2r
.	.	24dd|\	.	24dd|\	.	.	.	.	.	.	.
.	.	24cc|\JJ	.	24cc|\JJ	.	.	.	.	.	.	.
8B\	.	24b|\LL	.	24b|\LL	.	.	.	.	.	.	.
.	.	24a|\	.	24a|\	.	.	.	.	.	.	.
.	.	24g|\JJ	.	24g|\JJ	.	.	.	.	.	.	.
8d\	.	4f#/	.	4a/	.	.	.	.	.	.	.
!LO:TX:b:t=tutti	!	!	!	!	!	!	!	!	!	!	!
8D/J	.	.	.	.	.	.	.	.	.	.	.
!LO:TX:t=P:problem=mixed beam	!	!	!	!LO:TX:t=P:problem=mixed beam	!	!	!	!	!	!	!
8GG/L	.	8g\L	.	8g/L	.	8r	.	8r	.	8r	8r
!	!	!	!	!LO:TX:a:t=tut	!	!	!	!	!	!	!
8G\	.	8b\	.	8gg\	.	8G\	Et	8gg\	Et	8dd\L	8gg\L
!	!	!	!	!	!	!LO:N:vis=4	!	!	!	!	!
8B\	.	8dd\	.	8gg\	.	8B\	Re-	8gg\	Re-	8dd\	8gg\
8G\J	.	8b\J	.	8gg\J	.	8G\	-ſur-	8gg\	-ſur-	8dd\J	8gg\J
=63	=63	=63	=63	=63	=63	=63	=63	=63	=63	=63	=63
!	!	!LO:TX:t=P:problem=mixed beam	!	!	!	!	!	!	!	!	!
8d\L	.	8g/L	.	16ff#\LL	.	8d\	-re-	16ff#\LL	-re-	4dd\	4ff#\
.	.	.	.	16ee\J	.	.	.	16ee\JJ	.	.	.
8d\	.	8g/	.	8dd\J	.	8d\	-xit	8dd\	-xit	.	.
*	*	*	*	*custos:b	*	*	*	*	*	*	*
!	!	!	!	!LO:LB:g=original	!	!	!	!LO:LB:g=original	!	!	!
8B\	.	8dd\	.	(16gg\LL	.	8B\	ter-	16gg\LL	ter-	8r	8r
.	.	.	.	16ff#\	.	.	.	16ff#\JJ	.	.	.
8B\J	.	8dd\J	.	16ee\	.	16B\	-ti-	16ee\	-ti-	8dd\	8gg\
!	!	!	!	!	!	!	!	!LO:N:vis=16.	!	!	!
.	.	.	.	16dd\JJ)	.	16B\	-a	16dd\	-a	.	.
*custos:E	*	*	*	*	*	*	*	*	*	*	*
!LO:LB:g=orignal	!	!LO:LB:g=original	!	!	!	!	!	!	!	!	!
8c\L	.	8g/	.	(16ee\LL	.	8c\	Di-	16ee\LL	di-	4ee\	4gg\
.	.	.	.	16dd\	.	.	.	16dd\JJ	-e	.	.
8c\	.	8r	.	16cc\	.	16c\	e	16cc\	ſe-	.	.
.	.	.	.	16b\JJ)	.	16c\	ſe-	16b\	.	.	.
8A\	.	8e/	.	(16cc\LL	.	8A\	-cun-	16cc\LL	-cun-	8r	8r
.	.	.	.	16b\	.	.	.	16b\JJ	.	.	.
8A\J	.	8r	.	16a\	.	16A\	-dum	16a\	-du(m)	8ee\	8aa\
.	.	.	.	16g\JJ)	.	16A\	ſcrip-	16g\	ſcrip-	.	.
=64	=64	=64	=64	=64	=64	=64	=64	=64	=64	=64	=64
!	!	!LO:N:vis=4	!	!	!	!	!	!	!	!	!
8d\L	.	8A/	.	16f#/LL	.	8d\	-tu-	8f#/	-tu-	4ff#\	4aa\
.	.	.	.	16e/J	.	.	.	.	.	.	.
8d\	.	8r	.	8d/J	.	8d\	-ras	8d/	-ras	.	.
8B\	.	8d/L	.	8g/L	.	8B\	et	8g/	et	8r	8r
8B\J	.	8d/J	.	8g/J	.	8B\	as-	8g/	as-	16dd\LL	16dd\LL
.	.	.	.	.	.	.	.	.	.	16dd\JJ	16dd\JJ
8c\L	.	8e/L	.	(16a/LL	.	(8c\L	-cen-	16a\LL	-cen-	8dd\L	4dd\
.	.	.	.	16f#/J)	.	.	.	16f#\JJ	.	.	.
8B\	.	8d/	.	8g/J	.	8B\J)	.	16g/	-dit	8dd\J	.
.	.	.	.	.	.	.	.	16g/	ad	.	.
8A\	.	8f#/	.	(16cc\LL	.	8A\	-dit	16cc\LL	Cae-	4dd\	4r
.	.	.	.	16a\J)	.	.	.	16a\JJ	.	.	.
8G\J	.	8d/J	.	8b\J	.	8G\	in	16b\	-lum	.	.
.	.	.	.	.	.	.	.	16b\	ſe-	.	.
=65	=65	=65	=65	=65	=65	=65	=65	=65	=65	=65	=65
8c\L	.	8f#/	.	(16ee\LL	.	8c\	Cae-	(16ee\LL	-det	4r	4r
.	.	.	.	16cc\J)	.	.	.	16cc\JJ)	.	.	.
8B\	.	8r	.	8dd\J	.	8B\	-lu(m)	8dd\	ad	.	.
!	!	!	!	!	!	!	!	!LO:N:vis=16	!	!	!
8B\	.	8dd\	.	8gg\L	.	8B\	ſe-	8gg\	dex-	8r	8r
8B\J	.	8r	.	8dd\J	.	16B\	-det	16dd\	-te-	8ee\	8gg\
.	.	.	.	.	.	16B\	ad	16dd\	-ram	.	.
!LO:TX:t=P:problem=mixed beam	!	!	!	!	!	!	!	!	!	!	!
.	.	.	.	8qqdd/	.	.	.	.	.	.	.
*	*	*	*	*	*	*	*	*	*ij	*	*
8c\L	.	8a/L	.	8cc\L	.	8c\	dex-	(16ee\LL	dex-	4dd\	4gg\
.	.	.	.	.	.	.	.	16cc\JJ)	.	.	.
8c\	.	8e/J	.	16b\L	.	16c\	-te-	16b\	-te-	.	.
.	.	.	.	16a\JJ	.	16c\	-ram	16a\	-ram	.	.
*	*	*	*	*	*	*	*	*	*Xij	*	*
!	!	!	!	!	!	!LO:LB:g=origianl	!	!	!	!	!
8d\	.	4f#/	.	16bt\KL	.	4d\	Pa-	4a\	Pa-	4dd\	4ff#\
.	.	.	.	8.a\J	.	.	.	.	.	.	.
8D/J	.	.	.	.	.	.	.	.	.	.	.
=66	=66	=66	=66	=66	=66	=66	=66	=66	=66	=66	=66
8G\L	.	8g\L	.	16g\LL	.	8G\	-tris	8g\	-tris	4dd\	4gg\
.	.	.	.	16b\	.	.	.	.	.	.	.
8G\	.	16b\L	.	16dd\	.	8G\	et	8dd\	et	.	.
.	.	16dd\JJ	.	16gg\JJ	.	.	.	.	.	.	.
8G\	.	8gg\L	.	8bb\L	.	8G\	i-	8dd\	i-	8r	8r
8G\J	.	8dd\J	.	8gg\J	.	8G\	-te-	8dd\	-te-	8gg\	8bb\
!	!	!	!	!	!	!	!	!LO:LB:g=original	!	!	!
8G\L	.	8b/L	.	8dd\L	.	8G\	-ru(m)	8dd\	-rum	8gg\L	8bb\L
8G\	.	8g/	.	8b\J	.	8G\	ven-	8dd\	Ven-	8gg\	8bb\
8G\	.	8d/	.	8g/L	.	8G\	-tu-	8dd\	-tu-	8gg\	8bb\
8G\J	.	8B/J	.	8d/J	.	8G\	-rus	8dd\	-r(us)	8gg\J	8bb\J
=67	=67	=67	=67	=67	=67	=67	=67	=67	=67	=67	=67
8F#\L	.	16d/LL	.	16f#\LL	.	8F#\	eſt	8dd\	eſt	4ff#\	4aa\
.	.	16f#/	.	16a\	.	.	.	.	.	.	.
8F#\	.	16a/	.	16dd\	.	8F#\	cum	8dd\	Cu(m)	.	.
.	.	16dd/JJ	.	16ff#\JJ	.	.	.	.	.	.	.
8F#\	.	8ff#\L	.	8aa\L	.	8F#\	glo-	8dd\	glo-	8r	8r
8F#\J	.	8dd\J	.	8ff#\J	.	16F#\	-ri-	16dd\	-ri-	8ff#\	8aa\
.	.	.	.	.	.	16F#\	-a	16dd\	-a	.	.
8F#\L	.	8a/L	.	8dd/L	.	8F#\	ju-	8dd\	ju-	8ff#\L	8aa\L
8F#\	.	8f#/	.	8a/	.	8F#\	-di-	8dd\	-di-	8ff#\	8aa\
8F#\	.	8d/	.	8f#/	.	8F#\	-ca-	8dd\	-ca-	8ff#\	8aa\
8F#\J	.	8A/J	.	8d/J	.	8F#\	-re	8dd\	-re	8ff#\J	8aa\J
=68	=68	=68	=68	=68	=68	=68	=68	=68	=68	=68	=68
8E\L	x 6\	16c#X/LL	.	16e/LL	.	8E\	vi-	8cc#X\	vi-	4ee\	4gg\
.	.	16e/	.	16g/	.	.	.	.	.	.	.
8E\	.	16a/	.	16cc#X/	.	16E\	-vos	16cc#\	-vos	.	.
.	.	16cc#X/JJ	.	16ee/JJ	.	16E\	et	16cc#\	et	.	.
8E\	.	8ee\L	.	8gg\L	.	8E\	mor-	8.cc#\	mor-	8r	8r
8E\J	.	8cc#\J	.	8ee\J	.	8E\	-tu-	.	.	8ee\	8gg\
.	.	.	.	.	.	.	.	16cc#\	-tu-	.	.
8E\L	.	8a/L	.	8cc#X/L	.	4E\	-oſ	4cc#\	-os	8ee\L	8gg\L
8E\	.	8e/	.	8g/	.	.	.	.	.	8ee\	8gg\
8E\	.	8c#X/	.	8e/	.	8E\	cu-	8cc#\	cu-	8ee\	8gg\
!	!	!	!	!LO:SIC:v:s=8c#/J	!	!	!	!	!	!	!
8E\J	.	8A/J	.	8c/J	.	8E\	-j(us)	8cc#\	-jus	8ee\J	8gg\J
!	!	!	!	!LO:LB:g=original	!	!	!	!	!	!	!
=69	=69	=69	=69	=69	=69	=69	=69	=69	=69	=69	=69
8F#\L	.	16A/LL	.	16d/LL	.	4F#\	re-	4dd\	Re-	4dd\	4ff#\
.	.	16d/	.	16f#/	.	.	.	.	.	.	.
8F#\	.	16f#/	.	16a/	.	.	.	.	.	.	.
.	.	16a/JJ	.	16dd/JJ	.	.	.	.	.	.	.
8F#\	.	16dd\LL	.	16ff#\LL	.	8F#\	-gni	8dd\	-gni	8r	8r
.	.	16ff#\	.	16aa\	.	.	.	.	.	.	.
8F#\J	.	16aa\	.	16ddd\	.	8F#\	non	8a\	non	8ff#\	8aa\
.	.	16ff#\JJ	.	16aa\JJ	.	.	.	.	.	.	.
!LO:TX:t=P:problem=mixed beam	!	!	!	!	!	!LO:LB:g=original	!	!	!	!	!
8G\L	.	8dd\L	.	16bb\LL	.	8G\	e-	8b\	e-	4ee\	4gg\
.	.	.	.	16gg\	.	.	.	.	.	.	.
8E\	.	8dd\J	.	16ff#\	.	8E\	-rit	8ee\	-rit	.	.
.	.	.	.	16ee\JJ	.	.	.	.	.	.	.
.	.	.	.	.	.	.	.	8qdd/	.	.	.
8A\	.	4cc#Xt\	.	4eeT\	.	4A\	fi-	8cc#X\L	fi-	4a/	4ee\
8AA/J	.	.	.	.	.	.	.	16dd\L	.	.	.
.	.	.	.	.	.	.	.	16ee\JJ	.	.	.
!	!	!LO:LB:g=original	!	!	!	!	!	!	!	!LO:LB:g=original	!LO:LB:g=original
=70	=70	=70	=70	=70	=70	=70	=70	=70	=70	=70	=70
!	!	!LO:TX:t=P:problem=mixed beam	!	!	!	!	!	!	!	!	!
8D\L	.	8dd\L	.	8dd\L	.	4D\	-nis	4dd\	-nis	4dd\	4ff#\
8D\	.	8f#/	.	8ddd\	.	.	.	.	.	.	.
8F#\	.	8a/	.	8ddd\	.	4r	.	4r	.	8r	8r
8D\J	.	8f#/J	.	8ddd\J	.	.	.	.	.	8dd\	8ff#\
4A\	x #	8e/	.	8ccc#X\L	.	2r	.	2r	.	4a/	4ee\
.	.	8r	.	16bb\L	.	.	.	.	.	.	.
.	.	.	.	16aa\JJ	.	.	.	.	.	.	.
4F#\	x 6	8a/	.	(16ddd\LL	.	.	.	.	.	8r	8r
.	.	.	.	16ccc#\	.	.	.	.	.	.	.
.	.	8r	.	16bb\	.	.	.	.	.	8ff#\	8aa\
.	.	.	.	16aa\JJ)	.	.	.	.	.	.	.
=71	=71	=71	=71	=71	=71	=71	=71	=71	=71	=71	=71
4G\	.	8d/	.	(16bb\LL	.	00r	.	0r	.	4gg\	4bb\
.	.	.	.	16aa\	.	.	.	.	.	.	.
.	.	8r	.	16gg\	.	.	.	.	.	.	.
.	.	.	.	16ff#\JJ)	.	.	.	.	.	.	.
4E\	.	8b/	.	(16gg\LL	.	.	.	.	.	8r	8r
.	.	.	.	16ff#\	.	.	.	.	.	.	.
.	.	8r	.	16ee\	.	.	.	.	.	8ee\	8gg\
.	.	.	.	16dd\JJ)	.	.	.	.	.	.	.
!	!	!	!	!LO:SIC:v:s=8cc#\L	!	!	!	!	!	!	!
4A\	.	8e/	.	8cc\L	.	.	.	.	.	4a/	4ee\
.	.	8r	.	16b\L	.	.	.	.	.	.	.
.	.	.	.	16a\JJ	.	.	.	.	.	.	.
8F#\L	.	8a/L	.	8dd\L	.	.	.	.	.	4r	4r
8F#\J	.	8a/J	.	8dd\J	.	.	.	.	.	.	.
=72	=72	=72	=72	=72	=72	=72	=72	=72	=72	=72	=72
8G\L	x #	8b/L	.	(16ee\LL	.	.	.	.	.	1r	1r
.	.	.	.	16cc#X\J)	.	.	.	.	.	.	.
8F#\	4 2	8a/J	.	8dd\J	.	.	.	.	.	.	.
8E\	x 6	8cc#X\L	.	(16gg\LL	.	.	.	.	.	.	.
.	.	.	.	16ee\J)	.	.	.	.	.	.	.
8D\J	.	8dd\J	.	8ff#\J	.	.	.	.	.	.	.
!	!	!LO:TX:t=P:problem=mixed beam	!	!	!	!	!	!	!	!	!
8G\L	.	8d/L	.	(16bb\LL	.	.	.	.	.	.	.
.	.	.	.	16gg\J)	.	.	.	.	.	.	.
8D\J	.	8ff#\J	.	8aa\J	.	.	.	.	.	.	.
8r	.	8r	.	24ddd|\LL	.	.	.	.	.	.	.
.	.	.	.	24ccc|\	.	.	.	.	.	.	.
.	.	.	.	24bb|\JJ	.	.	.	.	.	.	.
8D/	.	8ff#\	.	24aa|\LL	.	.	.	.	.	.	.
.	.	.	.	24gg|\	.	.	.	.	.	.	.
.	.	.	.	24ff#|\JJ	.	.	.	.	.	.	.
!	!	!	!	!	!	!	!	!LO:LB:g=original	!	!	!
=73	=73	=73	=73	=73	=73	=73	=73	=73	=73	=73	=73
!LO:TX:t=P:problem=mixed beam	!	!	!	!	!	!	!	!LO:TX:a:i:t=ſolo	!	!	!
8G\L	.	8dd\L	.	24bb\LL	.	.	.	2r	.	8r	8r
.	.	.	.	24aa\	.	.	.	.	.	.	.
.	.	.	.	24gg\JJ	.	.	.	.	.	.	.
8D\	.	8a\J	.	24ff#|\LL	.	.	.	.	.	8dd/L	8ff#\L
.	.	.	.	24ee|\	.	.	.	.	.	.	.
.	.	.	.	24dd|\JJ	.	.	.	.	.	.	.
8A\	x #	4cc#X\	.	4eeT\	.	.	.	.	.	8a/	8ee\
8AA/J	.	.	.	.	.	.	.	.	.	8a/J	8ee\J
*custos:D	*	*	*	*	*	*	*	*	*	*	*
!LO:LB:g=orignal	!	!	!	!	!	!	!	!	!	!	!
8D\L	.	4dd\	.	4dd\	.	.	.	4r	.	4dd\	4ff#\
8E\	.	.	.	.	.	.	.	.	.	.	.
8F#\	.	4r	.	4r	.	.	.	8dd\	Et	4r	4r
8D\J	.	.	.	.	.	.	.	8dd\	in	.	.
=74	=74	=74	=74	=74	=74	=74	=74	=74	=74	=74	=74
!	!	!	!	!	!	!	!	!	!	!	!LO:TX:a:t=4
4A\	x #	00r	.	2r	.	.	.	16cc#X\	Spi-	00r	00r
.	.	.	.	.	.	.	.	16b\	-ri-	.	.
.	.	.	.	.	.	.	.	8a\	-tu(m)	.	.
8B\L	.	.	.	.	.	.	.	8gg\	San-	.	.
8c#X\J	.	.	.	.	.	.	.	8ee\	-ctu(m)	.	.
4d\	.	.	.	4r	.	.	.	16ff#\	Do-	.	.
.	.	.	.	.	.	.	.	16ee\	-mi-	.	.
.	.	.	.	.	.	.	.	8dd\	-nu(m)	.	.
!	!	!	!	!	!LO:DY:a:t=pia	!	!	!	!	!	!
8r	.	.	.	8dd\L	p	.	.	8ff#\	et	.	.
8D/	.	.	.	16cc#X\L	.	.	.	(16ee\LL	vi-	.	.
.	.	.	.	16b\JJ	.	.	.	16dd\JJ)	.	.	.
!	!	!	!	!LO:LB:g=original	!	!	!	!	!	!	!
=75	=75	=75	=75	=75	=75	=75	=75	=75	=75	=75	=75
8A\L	6 4#	.	.	8a\L	.	0r	.	8cc#X\	-vi-	.	.
8A\	.	.	.	8ff#\	.	.	.	8dd\	-fi-	.	.
.	.	.	.	.	.	.	.	16qqee/LL	.	.	.
.	.	.	.	.	.	.	.	16qqff#/JJ	.	.	.
8A\	6 2#	.	.	8ee\	.	.	.	8gg\L	-can-	.	.
8A\J	x 4	.	.	8dd\J	.	.	.	8ff#\J	.	.	.
8A\L	x #_	.	.	4cc#X\	.	.	.	4ee\	-te(m)	.	.
8A\	.	.	.	.	.	.	.	.	.	.	.
8A\	6 _	.	.	8cc#\L	.	.	.	8ee\	qui	.	.
8A\J	x 4	.	.	8dd\J	.	.	.	8ff#\	ex	.	.
=76	=76	=76	=76	=76	=76	=76	=76	=76	=76	=76	=76
8A\L	6 4#	.	.	8ee\L	.	.	.	8cc#X\	Pa-	.	.
8A\	.	.	.	8ff#\J	.	.	.	8dd\	-tre	.	.
.	.	.	.	8qqff#/	.	.	.	.	.	.	.
8A\	#_ 2	.	.	8ee\L	.	.	.	8gg\	Fi-	.	.
8A\J	.	.	.	16dd\L	.	.	.	16ff#\LL	-li-	.	.
!	!	!	!	!LO:SIC:v:s=16cc#\JJ	!	!	!	!	!	!	!
.	.	.	.	16cc\JJ	.	.	.	16ee\JJ	-o-	.	.
!LO:TX:t=P:problem=mixed beam	!	!	!	!	!	!	!	!	!	!	!
8d\L	x x	.	.	8dd\L	.	.	.	8ff#\	-q(ue)	.	.
8G\	.	.	.	8b\J	.	.	.	16ee\	pro-	.	.
.	.	.	.	.	.	.	.	16dd\	-ce-	.	.
.	.	.	.	.	.	.	.	8qqdd/	.	.	.
8A\	.	.	.	4eT/	.	.	.	4cc#X\	-dit	.	.
8AA/J	.	.	.	.	.	.	.	.	.	.	.
=77	=77	=77	=77	=77	=77	=77	=77	=77	=77	=77	=77
8D\L	.	.	.	4f#/	.	1r	.	8dd\	qui	.	.
8D\	.	.	.	.	.	.	.	16dd\	cum	.	.
.	.	.	.	.	.	.	.	16dd\	.	.	.
!	!	!	!	!	!	!	!	!LO:LB:g=original	!	!	!
8E\	.	.	.	4r	.	.	.	8ccn\	Pa-	.	.
8Fn\J	x 6	.	.	.	.	.	.	16dd\	-tre	.	.
.	.	.	.	.	.	.	.	16cc\	et	.	.
.	.	.	.	.	.	.	.	8qqcc/	.	.	.
8G\L	.	.	.	2r	.	.	.	8.b\	Fi-	.	.
8D\J	.	.	.	.	.	.	.	.	.	.	.
.	.	.	.	.	.	.	.	16a\	-li-	.	.
16d\LL	.	.	.	.	.	.	.	4a\	-o	.	.
16c\	.	.	.	.	.	.	.	.	.	.	.
16B\	.	.	.	.	.	.	.	.	.	.	.
16A\JJ	.	.	.	.	.	.	.	.	.	.	.
=78	=78	=78	=78	=78	=78	=78	=78	=78	=78	=78	=78
!LO:TX:a:t=tutti	!	!	!	!	!	!	!	!	!	!	!
8G\L	.	16d/LL	.	16g\LL	.	8G\	ſi-	8dd\	ſi-	4dd\	4dd\
.	.	16g/	.	16b\	.	.	.	.	.	.	.
8G\	.	16b/	.	16dd\	.	8G\	-mul	8dd\	-mul	.	.
.	.	16dd/JJ	.	16gg\JJ	.	.	.	.	.	.	.
8G\	.	8gg\L	.	8bb\L	.	8G\	a-	8dd\	a-	8r	8r
8G\J	.	8dd\J	.	8gg\J	.	8G\	-do-	8dd\	-do-	8gg\	8bb\
8G\L	.	8b/L	.	8dd\L	.	4G\	-ra-	4dd\	-ra-	8gg\L	8bb\L
8G\	.	8g/	.	8b\J	.	.	.	.	.	8gg\	8bb\
8G\	.	8d/	.	8g/L	.	8G\	-tur	8dd\	-tur	8gg\	8bb\
8G\J	.	8B/J	.	8d/J	.	8G\	et	8dd\	et	8gg\J	8bb\J
=79	=79	=79	=79	=79	=79	=79	=79	=79	=79	=79	=79
8F#\L	x 6\	16d#X/LL	.	16f#/LL	.	8F#\	Con-	8dd#X\	con-	4ff#\	4aa\
.	.	16f#/	.	16a/	.	.	.	.	.	.	.
8F#\	.	16b/	.	16dd#X/	.	8F#\	-glo-	8dd#\	-glo-	.	.
.	.	16dd#X/JJ	.	16ff#/JJ	.	.	.	.	.	.	.
8F#\	.	8ff#\L	.	8aa\L	.	8F#\	-ri-	8dd#\	-ri-	4r	4r
8F#\J	.	8dd#X\J	.	8ff#\J	.	8F#\	-fi-	8dd#\	-fi-	.	.
8F#\L	.	8b/L	.	8dd#X\L	.	4F#\	-ca-	4dd#\	-ca-	8r	8r
8F#\	.	8g/	.	8b\J	.	.	.	.	.	8ff#\L	8aa\L
8F#\	.	8d#X/	.	8f#/L	.	4F#\	-tur	4dd#\	-tur	8ff#\	8aa\
8F#\J	.	8B/J	.	8d#X/J	.	.	.	.	.	8ff#\J	8aa\J
!	!	!LO:LB:g=original	!	!	!	!	!	!	!	!	!
=80	=80	=80	=80	=80	=80	=80	=80	=80	=80	=80	=80
8E\L	.	16B/LL	.	16e/LL	.	8E\	Qui	8b\	qui	4ee\	4gg\
.	.	16e/	.	16g/	.	.	.	.	.	.	.
8E\	.	16g/	.	16b/	.	8E\	lo-	8b\	lo-	.	.
.	.	16b/JJ	.	16ee/JJ	.	.	.	.	.	.	.
8E\	.	8ee\L	.	8gg\L	.	8E\	-cu-	8g/	-cu-	4r	4r
8E\J	.	8b\J	.	8ee\J	.	8E\	-tus	8e/	-t(us)	.	.
8E\L	.	8g/L	.	8b/L	.	4E\	est	4b\	est	2r	2r
8E\	.	8e/	.	8g/	.	.	.	.	.	.	.
8E\	.	8B/	.	8e/	.	8E\	per	8ee\	per	.	.
8E\J	.	8G/J	.	8B/J	.	8E\	Pro-	8ee\	Pro-	.	.
!	!	!	!	!	!	!LO:LB:g=original	!	!	!	!	!
=81	=81	=81	=81	=81	=81	=81	=81	=81	=81	=81	=81
!LO:TX:t=P:problem=mixed beam	!	!LO:TX:t=P:problem=mixed beam	!	!LO:TX:t=P:problem=mixed beam	!	!	!	!	!	!	!
8A\L	x 6n	8A/L	.	8c/L	.	(4A\	-phe-	(4ee\	-phe-	00r;	00r;
8A\	.	16cc\L	.	16aa\L	.	.	.	.	.	.	.
.	.	16a\JJ	.	16ff#\JJ	.	.	.	.	.	.	.
8B\	.	4f#/	.	8b\L	.	4B\)	.	4dd#X\)	.	.	.
8BB/J	.	.	.	8dd#X\J	.	.	.	.	.	.	.
8E\L	.	8e/L	.	16ee\LL	.	8E\	-tas	8ee\	-tas	.	.
.	.	.	.	16b\	.	.	.	.	.	.	.
8E\	.	8b/J	.	16ee\	.	8E\	et	8b\	et	.	.
.	.	.	.	16gg\JJ	.	.	.	.	.	.	.
8E\	.	8ee\L	.	16bb\LL	.	8E\	u-	8b\	u-	.	.
.	.	.	.	16gg\	.	.	.	.	.	.	.
8E\J	.	8gg\J	.	16ee\	.	8E\	-nam	8ee\	-nam	.	.
.	.	.	.	16gg\JJ	.	.	.	.	.	.	.
!LO:LB:g=orignal	!	!	!	!	!	!	!	!LO:LB:g=original	!	!	!
=82	=82	=82	=82	=82	=82	=82	=82	=82	=82	=82	=82
4B\	x #	8dd#X\	.	8ff#\L	.	4B\	ſan-	4dd#X\	San-	.	.
.	.	4ff#\	.	8dd#X\J	.	.	.	.	.	.	.
*	*	*	*	*custos:b	*	*	*	*	*	*	*
!	!	!	!	!LO:LB:g=original	!	!	!	!	!	!	!
8B\L	.	.	.	8b\L	.	8B\	-cta(m)	8dd#\	-cta(m)	.	.
8B\J	.	[8bb\	.	8dd#\	.	8B\	Ca-	8dd#\	Ca-	.	.
8G\L	.	8bb\L]	.	8ee\	.	8.G\	-tho-	8.ee\	-tho-	.	.
8G\	.	8b\	.	8b\	.	.	.	.	.	.	.
.	.	.	.	.	.	16G\	-li-	16ee\	-li-	.	.
8D#X\	.	8dd#\	.	8ff#\	.	8D#X\	-ca(m)	8ff#\	-ca(m)	.	.
8D#\J	.	8b\J	.	8b\J	.	8D#\	et	8ff#\	et	.	.
=83	=83	=83	=83	=83	=83	=83	=83	=83	=83	=83	=83
8E\L	.	4.b\	.	8gg\L	.	8E\	A-	8gg\	A-	.	.
8F#\	x 6	.	.	8ff#\J	.	8F#\	-po-	8ff#\	-po-	.	.
8G\	.	.	.	8ee\L	.	8G\	-sto-	8ee\	-ſto-	.	.
8A#X\J	.	8cc#X\	.	16ff#\L	.	8A#X\	-li-	16ff#\LL	-li-	.	.
.	.	.	.	16cc#X\JJ	.	.	.	16cc#X\JJ	.	.	.
!LO:TX:t=P:problem=mixed beam	!	!	!	!	!	!	!	!	!	!	!
8B\L	.	8f#/L	.	8ddn\L	.	8B\	-cam	8dd\	-ca(m)	.	.
8E\	x 6	8g/J	.	16cc#X\L	.	8E\	Ec-	16cc#X\LL	Ecc-	.	.
.	.	.	.	16b\JJ	.	.	.	16b\JJ	le-	.	.
8F#\	x #	4a#X/	.	4cc#t\	.	8.F#\	-cle-	8.cc#\	-ſi-	.	.
8FF#/J	.	.	.	.	.	.	.	.	.	.	.
.	.	.	.	.	.	16F#\	-ſi-	16b\	-am	.	.
=84	=84	=84	=84	=84	=84	=84	=84	=84	=84	=84	=84
!LO:TX:t=P:problem=mixed beam	!	!	!	!	!	!	!	!	!	!	!
8BB/L	x n	8b\L	.	8b\L	.	8BB/	-am	8b\	Con-	.	.
8B\	x #	8b\	.	8dd#X\	.	8B\	Con-	8dd#X\	-fi-	.	.
8B\	.	8dd#X\	.	8ff#\	.	8B\	-fi-	8dd#\	-te-	.	.
8B\J	.	8ff#\J	.	8bb\J	.	8B\	-te-	8dd#\	-or	.	.
8e\L	.	8g\L	.	8b\L	.	8e\	-or	8ee\	u-	.	.
8E\	.	8b\	.	8ee\	.	8E\	u-	8gg\	-nu(m)	.	.
8G\	.	8ee\	.	8gg\	.	8G\	-nu(m)	8ee\	.	.	.
8E\J	.	8gg\J	.	8bb\J	.	8E\	ba-	8b\	ba-	.	.
!	!	!	!	!	!	!LO:LB:g=original	!	!	!	!	!
=85	=85	=85	=85	=85	=85	=85	=85	=85	=85	=85	=85
!	!	!LO:TX:t=P:problem=mixed beam	!	!	!	!	!	!	!	!	!
8A\L	.	8e/L	.	8ccn\L	.	8A\	-ptiſ-	8ccn\	-ptiſ-	00r	00r
8A\	.	8cc\	.	8ee\	.	8A\	-ma	8cc\	-ma	.	.
8F#\	.	8dd\	.	8a\	.	8F#\	in	8a\	in	.	.
8F#\J	.	8dd\J	.	8ccc\J	.	8F#\	re-	8a\	re-	.	.
!	!	!LO:TX:t=P:problem=mixed beam	!	!	!	!	!	!	!	!	!
8G\L	.	8dd\L	.	8bb\L	.	8G\	-miſ-	8dd\	-miſ-	.	.
8G\	.	8dd\	.	8bb\	.	8G\	-si-	8dd\	-si-	.	.
8E\	.	8g/	.	8gg\	.	8E\	-o-	8b\	-o-	.	.
8C\J	.	8a/J	.	8ee\J	.	8C\	-nem	8ee\	-nem	.	.
!	!	!	!	!	!	!	!	!LO:LB:g=original	!	!	!
=86	=86	=86	=86	=86	=86	=86	=86	=86	=86	=86	=86
8D/L	.	8a\L	.	8ff#\L	.	8D\	pec-	8a\	pec-	.	.
8GG/	.	16b\L	.	16gg\L	.	8G\	-ca-	8b\	-ca-	.	.
.	.	16cc\JJ	.	16aa\JJ	.	.	.	.	.	.	.
.	.	8qqb/	.	.	.	.	.	.	.	.	.
8D/	.	4a/	.	4ff#t\	.	4D\	-to-	4a\	-to-	.	.
8DD/J	.	.	.	.	.	.	.	.	.	.	.
!LO:TX:t=P:problem=mixed beam	!	!	!	!	!	!	!	!	!	!	!
8GG/L	.	16b\LL	.	16gg\LL	.	4GG/	-ru(m)	4g\	-ru(m)	.	.
.	.	16b\	.	16dd\	.	.	.	.	.	.	.
8G\	.	16b\	.	16dd\	.	.	.	.	.	.	.
.	.	16b\JJ	.	16dd\JJ	.	.	.	.	.	.	.
8G\	.	16b\LL	.	16dd\LL	.	8G\	et	8dd\	et	.	.
.	.	16b\	.	16dd\	.	.	.	.	.	.	.
8G\J	.	16b\	.	16dd\	.	8G\	ex-	8dd\	ex-	.	.
.	.	16b\JJ	.	16dd\JJ	.	.	.	.	.	.	.
!	!	!LO:LB:g=original	!	!	!	!	!	!	!	!	!
=87	=87	=87	=87	=87	=87	=87	=87	=87	=87	=87	=87
8G\L	6 4	16cc\LL	.	16ee\LL	.	4G\	-pec-	4ee\	-pec-	.	.
.	.	16cc\	.	16ee\	.	.	.	.	.	.	.
8G\	.	16cc\	.	16ee\	.	.	.	.	.	.	.
.	.	16cc\JJ	.	16ee\JJ	.	.	.	.	.	.	.
8G\	5 3	16cc\LL	.	16ee\LL	.	4G\	-to	4ee\	-to	.	.
.	.	16cc\	.	16ee\	.	.	.	.	.	.	.
8G\J	.	16cc\	.	16ee\	.	.	.	.	.	.	.
.	.	16cc\JJ	.	16ee\JJ	.	.	.	.	.	.	.
8G\L	.	16b\LL	.	16dd\LL	.	8G\	Re-	8dd\	Re-	.	.
.	.	16b\	.	16dd\	.	.	.	.	.	.	.
8A\	.	16cc\	.	16ff#\	.	8A\	-sur-	8dd\	-ſur-	.	.
.	.	16cc\JJ	.	16ff#\JJ	.	.	.	.	.	.	.
8B\	.	16dd\LL	.	16gg\LL	.	8B\	-rec-	8dd\	-rec-	.	.
.	.	16dd\	.	16gg\	.	.	.	.	.	.	.
8c\J	.	16ee\	.	16aa\	.	8c\	-ti-	8gg\	-ti-	.	.
.	.	16ee\JJ	.	16aa\JJ	.	.	.	.	.	.	.
=88	=88	=88	=88	=88	=88	=88	=88	=88	=88	=88	=88
8d\L	.	8a/L	.	4d/ 4a 4ff#	.	8d\	-o-	8ff#\	-o-	.	.
8d\J	.	8a/J	.	.	.	8d\	-nem	8ff#\	-nem	.	.
4r	.	4r	.	4d/ 4a 4ff#	.	4r	.	4r	.	.	.
2r;	.	2r;	.	4r	.	2r;	.	2r;	.	.	.
!	!	!	!	!LO:N:vis=2	!	!	!	!	!	!	!
.	.	.	.	4r;	.	.	.	.	.	.	.
!	!	!	!	!LO:LB:g=original	!	!	!	!	!	!	!
=89||	=89||	=89||	=89||	=89||	=89||	=89||	=89||	=89||	=89||	=89||	=89
!LO:TX:a:B:t=Adagio	!	!	!	!LO:TX:a:B:t=Adagio	!	!LO:TX:a:B:t=Adagio	!	!LO:TX:a:B:t=adagio	!	!LO:TX:a:B:t=Adagio	!LO:TX:a:B:t=adagio
4D\	.	4f#/	.	4dd\	.	4D/	Mor-	4a\	Mor-	0r	0r
.	.	.	.	.	.	.	.	8qqg/	.	.	.
4D\	.	4f#/	.	4a\	.	4D/	-tu-	4f#\	-tu-	.	.
!	!	!	!	!LO:SIC:v:s=2b-/	!	!	!	!	!	!	!
2C#X/	.	2g/	.	2b/	.	2C#X/	-o-	2b-X\	-o-	.	.
=90	=90	=90	=90	=90	=90	=90	=90	=90	=90	=90	=90
!LO:TX:b:t=Verte Allegro	!	!	!	!LO:SIC:v:s=1D	!	!	!	!	!	!	!
1D;;	.	1f#	.	1a	.	1E	-rum	1a	-rum	.	.
!	!	!	!	!	!	!LO:LB:g=original	!	!	!	!	!
*custos:C	*	*	*	*	*	*	*	*	*	*	*
!LO:PB:g=original	!	!	!	!	!	!	!	!	!	!	!
=91||	=91||	=91||	=91||	=91||	=91||	=91||	=91||	=91||	=91||	=91||	=91
*M4/4	*	*	*	*	*	*	*	*	*	*	*
*met(c)	*	*	*	*	*	*	*	*	*	*	*
!	!	!LO:TX:t=P:problem=mixed beam	!	!LO:TX:t=P:problem=mixed beam	!	!	!	!	!	!LO:TX:a:B:t=allegro	!LO:TX:b:t=Et vita(m)
!LO:TX:t=P:problem=oznaczenie metryczne C z kropką	!	!LO:TX:b:t=Et vitam	!	!LO:TX:b:B:t=allo	!	!LO:TX:a:B:t=Allo	!	!	!	!LO:TX:b:t=Etvita(m)	!LO:TX:a:B:t=Allegro
8r	.	8g/L	.	8g/L	.	4G\	Et	4dd\	Et	8r	8r
8G\L	.	8gg\	.	8gg\	.	.	.	.	.	8dd\L	8gg\L
8B\	.	8gg\	.	8gg\	.	4B\	vi-	4gg\	vi-	8dd\	8gg\
8G\J	.	8gg\J	.	8gg\J	.	.	.	.	.	8dd\J	8gg\J
8d\L	.	(16ff#\LL	.	16ff#\LL	.	8d\	-tam	8ff#\	-ta(m)	4dd\	4ff#\
.	.	16ee\J)	.	16ee\J	.	.	.	.	.	.	.
8d\	.	8dd\J	.	8dd\J	.	8d\	Ven-	8dd\	ven-	.	.
8B\	.	(16gg\LL	.	(16gg\LL	.	8B\	-tu-	(16gg\LL	-tu-	8r	8r
.	.	16ff#\	.	16ff#\	.	.	.	16ff#\JJ)	.	.	.
8B\J	.	16ee\	.	16ee\	.	8B\	-ri	(16ee\LL	-ri	8dd\	8gg\
.	.	16dd\JJ)	.	16dd\JJ)	.	.	.	16dd\JJ)	.	.	.
=92	=92	=92	=92	=92	=92	=92	=92	=92	=92	=92	=92
8c\L	.	(16ee\LL	.	(16ee\LL	.	8c\	ſae-	16ee\LL	ſae-	4ee\	4gg\
.	.	16dd\	.	16dd\	.	.	.	16dd\JJ	.	.	.
8c\	.	16cc\	.	16cc\	.	16c\	-cu-	16cc\	-cu-	.	.
.	.	16b\JJ)	.	16b\JJ)	.	16c\	-li	16b\	-li	.	.
*	*	*	*	*	*	*	*	*custos:g	*	*	*
!	!	!	!	!	!	!	!	!LO:LB:g=original	!	!	!
8A\	.	(16cc\LL	.	(16cc\LL	.	8A\	a-	16cc\LL	a-	8r	8r
.	.	16b\	.	16b\	.	.	.	16b\	.	.	.
*	*	*	*	*	*	*	*	*	*	*custos:b	*
!	!	!	!	!	!	!	!	!	!	!LO:LB:g=original	!
8A\J	.	16a\	.	16a\	.	8A\	-men	16a\	.	8ee\	8aa\
.	.	16g\JJ)	.	16g\JJ)	.	.	.	16g\JJ	.	.	.
8d\L	.	16f#/LL	.	(16f#/LL	.	8d\	.	8f#/	.	4ff#\	4aa\
.	.	16e/J	.	16e/J)	.	.	.	.	.	.	.
8d\	.	8d/J	.	8d/J	.	8d\	.	8d/	-men	.	.
8B\	.	8g/L	.	8g/L	.	8r	.	8g/	a-	8r	8r
8B\J	.	8g/J	.	8g/J	.	8B\	a-	8g/	-men	16dd\LL	16dd\LL
.	.	.	.	.	.	.	.	.	.	16dd\JJ	16dd\JJ
=93	=93	=93	=93	=93	=93	=93	=93	=93	=93	=93	=93
8c\L	.	(16a/LL	.	(16a/LL	.	8c\L	.	(16a\LL	a-	4dd\	8dd\
.	.	16f#/J)	.	16f#/J)	.	.	.	16f#\J)	.	.	.
8B\	.	8g/J	.	8g/J	.	8B\	.	8g\J	.	.	8r
8A\	.	(16cc\LL	.	16cc\LL	.	8A\	.	(16cc\LL	.	4r	4r
.	.	16a\J)	.	16a\J	.	.	.	16a\J)	.	.	.
8G\J	.	8b\J	.	8b\J	.	8G\J	.	8b\J	.	.	.
*	*	*	*	*	*	*	*	*	*	*	*custos:b
!	!	!	!	!	!	!	!	!	!	!	!LO:LB:g=original
8F#\L	x 2	(16ee\LL	.	16ee\LL	.	8c\L	-men	(16ee\LL	.	4r	4r
.	.	16cc\J)	.	16cc\J	.	.	.	16cc\J)	.	.	.
8G\J	.	8dd\J	.	8dd\J	.	8B\J	.	8dd\J	.	.	.
8r	.	24gg|\LL	.	24gg|\LL	.	8r	.	16gg\LL	.	8r	8r
.	.	24ff#|\	.	24ff#|\	.	.	.	.	.	.	.
.	.	.	.	.	.	.	.	16ff#\	.	.	.
.	.	24ee|\JJ	.	24ee|\JJ	.	.	.	.	.	.	.
!	!	!LO:TUP:a:problem=klamra łukowa	!	!	!	!	!	!	!	!	!
8B\	.	24dd|\LL	.	24dd|\LL	.	8B\	a-	16ee\	.	8ee\	8gg\
.	.	24cc|\	.	24cc|\	.	.	.	.	.	.	.
.	.	.	.	.	.	.	.	16dd\JJ	.	.	.
.	.	24b|\JJ	.	24b|\JJ	.	.	.	.	.	.	.
!	!	!LO:LB:g=original	!	!	!	!	!	!	!	!	!
=94	=94	=94	=94	=94	=94	=94	=94	=94	=94	=94	=94
!LO:TX:t=P:problem=mixed beam	!	!	!	!	!	!LO:TX:t=P:problem=mixed beam	!	!	!	!	!
8c\L	.	24ee|\LL	.	24ee|\LL	.	8c\L	.	8.cc\L	.	4dd\	4gg\
.	.	24dd|\	.	24dd|\	.	.	.	.	.	.	.
.	.	24cc|\JJ	.	24cc|\JJ	.	.	.	.	.	.	.
8G\	.	24b|\LL	.	24b|\LL	.	8A\	.	.	.	.	.
.	.	24a|\	.	24a|\	.	.	.	.	.	.	.
.	.	.	.	.	.	.	.	16b\Jk	.	.	.
.	.	24g|\JJ	.	24g|\JJ	.	.	.	.	.	.	.
.	.	.	.	.	.	.	.	8qqb/	.	.	.
8d\	.	4a/	.	4a/	.	8d\	.	4a\	.	4dd\	4ff#\
8D/J	.	.	.	.	.	8D/J	.	.	.	.	.
!	!	!LO:TX:t=P:problem=mixed beam	!	!LO:TX:t=P:problem=mixed beam	!	!	!	!	!	!	!
8G\L	.	8g/L	.	8g/L	.	8G\	-men	8g\	-men	8dd\L	8gg\L
8G\	.	8bb\	.	8bb\	.	8G|\L	a-	8b\	a-	8gg\	8bb\
8F#\	x 6\	8aa\	.	8aa\	.	(8F#\	.	8dd\L	.	8ff#\	8aa\
8E\J	.	8gg\J	.	8gg\J	.	8E\J)	.	8cc#X\J	.	8ee\J	8gg\J
=95	=95	=95	=95	=95	=95	=95	=95	=95	=95	=95	=95
8D\L	.	8ff#\L	.	8ff#\L	.	8D\L	.	8dd\	-men	8dd\L	8ff#\L
8G\	.	8bb\	.	8bb\	.	8G\	.	4dd\	a-	8gg\	8bb\
8F#\	.	8aa\	.	8aa\	.	8F#\	.	.	.	8ff#\	8aa\
8E\J	.	8cc#X\J	.	8cc#X\J	.	8E\J	.	8gg\	.	8ee\J	8gg\J
16D\LL	x 6	16dd\LL	.	16dd\LL	.	16E\LL	.	16ff#\LL	.	4dd\	16ff#\LL
16B\	x 6	16gg\	.	16gg\	.	16B\	.	16gg\	.	.	16gg\
16A\	x 6	16ff#\	.	16ff#\	.	16A\	.	16ff#\	.	.	16ff#\
16G\JJ	.	16ee\JJ	.	16ee\JJ	.	16G\JJ	.	16ee\JJ	.	.	16ee\JJ
*	*	*	*	*	*	*custos:D	*	*	*	*	*
!	!	!	!	!	!	!LO:LB:g=original	!	!	!	!	!
!LO:TX:t=P:problem=mixed beam	!	!	!	!	!	!LO:TX:t=P:problem=mixed beam	!	!	!	!	!
8A\L	.	4eeT\	.	4eeT\	.	8A\L	.	4ee\	.	8r	4eeT\
8AA/J	.	.	.	.	.	8AA/J	.	.	.	8a/	.
!	!	!	!	!LO:LB:g=original	!	!	!	!	!	!	!
=96	=96	=96	=96	=96	=96	=96	=96	=96	=96	=96	=96
4D\	.	8dd\L	.	8dd\L	.	4D\	-men	4dd\	-men	4f#/	4dd\
.	.	16ee\L	.	16ee\L	.	.	.	.	.	.	.
.	.	16ff#\JJ	.	16ff#\JJ	.	.	.	.	.	.	.
8r	.	16gg\LL	.	16gg\LL	.	8r	.	8r	.	8r	8r
.	.	16aa\	.	16aa\	.	.	.	.	.	.	.
8G\	.	16bb\	.	16bb\	.	8G\	a-	8dd\	.	8dd\	8gg\
.	.	16dd\JJ	.	16dd\JJ	.	.	.	.	.	.	.
4c\	.	16ee\LL	.	16ee\LL	.	4c\	-men	4ee\	.	4ee\	4gg\
.	.	16cc\	.	16ccn\	.	.	.	.	.	.	.
.	.	16dd\	.	16dd\	.	.	.	.	.	.	.
.	.	16ee\JJ	.	16ee\JJ	.	.	.	.	.	.	.
8r	.	16ff#\LL	.	16ff#\LL	.	8r	.	8r	.	8r	8r
.	.	16gg\	.	16gg\	.	.	.	.	.	.	.
8F#\	x 2	16aa\	.	16aa\	.	8F#\	a-	8ee\	.	8ff#\	8aa\
.	.	16cc\JJ	.	16cc\JJ	.	.	.	.	.	.	.
=97	=97	=97	=97	=97	=97	=97	=97	=97	=97	=97	=97
4B\	.	16dd\LL	.	16dd\LL	.	4B\	-men	4dd\	.	4dd\	4ff#\
.	.	16b\	.	16b\	.	.	.	.	.	.	.
.	.	16cc\	.	16cc\	.	.	.	.	.	.	.
.	.	16dd\JJ	.	16dd\JJ	.	.	.	.	.	.	.
8r	.	16ee\LL	.	16ee\LL	.	8r	.	8r	.	8r	8r
.	.	16ff#\	.	16ff#\	.	.	.	.	.	.	.
8E\	.	16gg\	.	16gg\	.	8E\	a-	8dd\	.	8ee\	8gg\
.	.	16b\JJ	.	16b\JJ	.	.	.	.	.	.	.
*	*	*	*	*	*	*	*	*custos:a	*	*	*
!	!	!	!	!	!	!	!	!LO:LB:g=original	!	!	!
4A\	.	16cc\LL	.	16cc\LL	.	4A\	-men	4ccn\	.	4a/	4ee\
.	.	16a\	.	16a\	.	.	.	.	.	.	.
.	.	16b\	.	16b\	.	.	.	.	.	.	.
.	.	16cc\JJ	.	16cc\JJ	.	.	.	.	.	.	.
8r	.	16dd\LL	.	16dd\LL	.	8r	.	8r	.	8r	8r
.	.	16ee\	.	16ee\	.	.	.	.	.	.	.
8D\	.	16ff#\	.	16ff#\	.	8D\	a	8cc\	.	8dd\	8ff#\
.	.	16a\JJ	.	16a\JJ	.	.	.	.	.	.	.
=98	=98	=98	=98	=98	=98	=98	=98	=98	=98	=98	=98
4G\	.	16b\LL	.	16b/LL	.	4G\	.	16b\LL	.	4dd\	4gg\
.	.	16g\	.	16g/	.	.	.	16g\	.	.	.
.	.	16a\	.	16a/	.	.	.	16a\	.	.	.
.	.	16b\JJ	.	16b/JJ	.	.	.	16b\JJ	.	.	.
!	!	!LO:TX:t=P:problem=mixed beam	!	!LO:TX:t=P:problem=mixed beam	!	!	!	!LO:TX:t=P:problem=mixed beam	!	!	!
8r	.	16cc\LL	.	16cc\LL	.	8r	.	16cc\LL	.	8r	8r
.	.	16dd\	.	16dd\	.	.	.	16dd\	.	.	.
8C/	.	16ee\	.	16ee\	.	8C/	a-	16ee\	.	8ee\	8gg\
.	.	16g/JJ	.	16g/JJ	.	.	.	16g/JJ	.	.	.
*custos:D	*	*	*	*	*	*	*	*	*	*	*
!LO:LB:g=original	!	!	!	!	!	!	!	!	!	!	!
8D/L	.	8f#/L	.	8f#/L	.	8D\	.	8f#/L	.	4dd\	8ff#\L
8GG/	.	16g/L	.	16g/L	.	8G\	.	16g/L	.	.	16gg\L
.	.	16a/JJ	.	16a/JJ	.	.	.	16a/JJ	.	.	16aa\JJ
8D/	.	4a/	.	4aT/	.	4D/	.	4aT\	.	4dd\	4ff#\
8DD/J	.	.	.	.	.	.	.	.	.	.	.
=99	=99	=99	=99	=99	=99	=99	=99	=99	=99	=99	=99
4GG/	.	16g\LL	.	16g\LL	.	4GG/	-men	4g\	men	4dd\	4gg\
.	.	16dd\	.	16dd\	.	.	.	.	.	.	.
.	.	16ee\	.	16ee\	.	.	.	.	.	.	.
.	.	16ff#\JJ	.	16ff#\JJ	.	.	.	.	.	.	.
8r	.	16gg\LL	.	16gg\LL	.	8r	.	8r	.	8r	8r
.	.	16aa\	.	16aa\	.	.	.	.	.	.	.
8G\	.	16bb\	.	16bb\	.	8G\	a-	8dd\	a-	8dd\	8gg\
.	.	16dd\JJ	.	16dd\JJ	.	.	.	.	.	.	.
!	!	!LO:LB:g=original	!	!	!	!	!	!	!	!LO:LB:g=original	!
4c\	.	16ee\LL	.	16ee\LL	.	4c\	-men	4ee\	-men	4ee\	4gg\
.	.	16cc\	.	16cc\	.	.	.	.	.	.	.
.	.	16dd\	.	16dd\	.	.	.	.	.	.	.
.	.	16ee\JJ	.	16ee\JJ	.	.	.	.	.	.	.
8r	.	16ff#\LL	.	16ff#\LL	.	8r	.	8r	.	8r	8r
.	.	16gg\	.	16gg\	.	.	.	.	.	.	.
8F#\	.	16aa\	.	16aa\	.	8F#\	.	8ee\	.	8ff#\	8aa\
.	.	16cc\JJ	.	16cc\JJ	.	.	.	.	.	.	.
=100	=100	=100	=100	=100	=100	=100	=100	=100	=100	=100	=100
4B\	.	16dd\LL	.	16dd\LL	.	4B\	.	4dd\	.	4dd\	4ff#\
.	.	16b\	.	16b\	.	.	.	.	.	.	.
.	.	16cc\	.	16cc\	.	.	.	.	.	.	.
.	.	16dd\JJ	.	16dd\JJ	.	.	.	.	.	.	.
8r	.	16ee\LL	.	16ee\LL	.	8r	.	8r	.	8r	8r
.	.	16ff#\	.	16ff#\	.	.	.	.	.	.	.
8E\	.	16gg\	.	16gg\	.	8E\	.	8dd\	.	8ee\	8gg\
.	.	16b\JJ	.	16b\JJ	.	.	.	.	.	.	.
4A\	.	16cc\LL	.	16cc\LL	.	4A\	.	4cc\	.	4a/	4ee\
.	.	16a\	.	16a\	.	.	.	.	.	.	.
.	.	16b\	.	16b\	.	.	.	.	.	.	.
.	.	16cc\JJ	.	16cc\JJ	.	.	.	.	.	.	.
*	*	*	*	*custos:b	*	*	*	*	*	*	*
!	!	!	!	!LO:LB:g=original	!	!	!	!	!	!	!
!	!	!LO:TX:t=P:problem=mixed beam	!	!LO:TX:t=P:problem=mixed beam	!	!	!	!	!	!	!
8r	.	16dd\LL	.	16dd\LL	.	8r	.	8r	.	8r	8r
.	.	16ee\	.	16ee\	.	.	.	.	.	.	.
8D\	.	16ff#\	.	16ff#\	.	8D\	a-	8cc\	a-	8dd\	8ff#\
.	.	16a/JJ	.	16a/JJ	.	.	.	.	.	.	.
=101	=101	=101	=101	=101	=101	=101	=101	=101	=101	=101	=101
!	!	!	!	!	!	!	!	!	!	!	!LO:TX:t=P:problem=4dd poprawione na 4cc
4G\	.	16b/LL	.	16b/LL	.	4G\	-men	16b\LL	.	4dd\	4gg\
.	.	16g/	.	16g/	.	.	.	16g\	.	.	.
.	.	16a/	.	16a/	.	.	.	16a\	.	.	.
.	.	16b/JJ	.	16b/JJ	.	.	.	16b\JJ	.	.	.
!	!	!LO:TX:t=P:problem=mixed beam	!	!LO:TX:t=P:problem=mixed beam	!	!	!	!	!	!	!
8r	.	16cc\LL	.	16cc\LL	.	8r	.	16cc\LL	.	8r	8r
.	.	16dd\	.	16dd\	.	.	.	16dd\	.	.	.
8C/	.	16ee\	.	16ee\	.	8C/L	a-	16ee\	.	8ee\	8gg\
.	.	16g/JJ	.	16g/JJ	.	.	.	16g\JJ	.	.	.
!LO:TX:t=P:problem=mixed beam	!	!	!	!	!	!	!	!	!	!	!LO:LB:g=original
8D\L	.	8f#/L	.	8f#/L	.	8D/J	.	8f#/L	.	4dd\	8ff#\L
8G\	.	16g/L	.	16g/L	.	8G\	.	16g/L	.	.	16gg\L
.	.	16a/JJ	.	16a/JJ	.	.	.	16a/JJ	.	.	16aa\JJ
8D\	.	4a/	.	4aT/	.	4D/	.	4f#/	.	4dd\	4ff#\
8DD/J	.	.	.	.	.	.	.	.	.	.	.
!	!	!	!	!	!	!LO:LB:g=original	!	!	!	!	!
=102	=102	=102	=102	=102	=102	=102	=102	=102	=102	=102	=102
!	!	!LO:TX:t=P:problem=mixed beam	!	!LO:TX:t=P:problem=mixed beam	!	!	!	!	!	!	!
4GG/	.	8g/L	.	8g/L	.	4GG/	-men	4g\	.	4dd\	4gg\
.	.	8gg\	.	8gg\J	.	.	.	.	.	.	.
!	!	!	!	!LO:TX:t=P:problem=mixed beam	!	!	!	!	!	!	!
4D\	.	8a/	.	8a/L	.	4D/	a-	4a\	.	8r	4ff#\
.	.	8ff#\J	.	8gg\J	.	.	.	.	.	8dd\	.
4GG/	.	4G/ 4d 4b 4gg	.	4G/ 4d 4b 4gg	.	4GG/ 4G	-men	4b\	-men	4dd\	4gg\
4r	.	4r	.	4r	.	4r	.	4r	.	4r	4r
!	!	!	!	!LO:TX:b:t=Sequet Sanctuſ	!	!	!	!	!	!	!
==	==	==	==	==	==	==	==	==	==	==	==
*-	*-	*-	*-	*-	*-	*-	*-	*-	*-	*-	*-
!!!system-decoration: [(g1)][(g2)][(g3)]g4
!!!RDF**kern: i = editorial accidental
!!!RDF**kern: | = vertical stroke
!!!RDF**kern: > = above
!!!RDF**kern: < = below
!!!ENC: Katarzyna Serwa
!!!END: 2022-03-23
!!!ENC: Tomasz Grochalski
!!!END: 2020-12-10
!!!YEC: Copyright 2022 Narodowy Instytut Fryderyka Chopina (https://polishscores.org)
!!!YEM: Licence CC BY 4.0 (https://creativecommons.org/licenses/by/4.0)
